!!!!SEGMENT: pl-cz--ii-36--005_zeidler-jozef--missa-e-benedictus.krn
!!!cenid: 18xx:293
!!!COM: Zeidler, Józef
!!!COM-rismid: pe30003401
!!!CDT: ~1744-1806
!!!CNT: Polish
!!!OPR: Missa E
!!!OTL: Benedictus
!!!OMV: 005
!!!PDT: 1820
!!!AGN: Sacred; Mass
!!!SMS-siglum: PL-CZ
!!!SMS-shelfmark: II-36
!!!SMS-shelfwork: 001-005 M
!!!NIFC-rismid:
!!!URL-scan: http://repozytorium.nifc.pl/skany/pl-cz-nut--ii-36
!!!ONB-nifc: UWAGA: części Mszy: Kyrie, Gloria, Patrem, Sanctus, Benedictus, Agnus. Dona nobis
**kern	**fba	**kern	**dynam	**kern	**dynam	**kern	**dynam	**kern	**text	**dynam	**kern	**dynam
*part5	*part5	*part5	*part5	*part4	*part4	*part3	*part3	*part2	*part2	*part2	*part1	*part1
*staff6	*staff6	*staff5	*	*staff4	*	*staff3	*	*staff2	*staff2	*	*staff1	*
*Iorgan	*	*Iempty	*	*Ivioln	*	*Ivioln	*	*Iempty	*	*	*Iclars	*
*I"Orgno	*	*	*	*I"Violino Secundo	*	*I"Violino Primo	*	*I"Baſso.	*	*	*I"Clarinetto Primo Solo in B	*
*I'Org.	*	*	*	*I'V-no 2	*	*I'V-no 1	*	*I'B.	*	*	*I'Cl. in B♭	*
*clefF4	*	*clefC1	*	*clefG2	*	*clefG2	*	*clefF4	*	*	*clefG2	*
*	*	*	*	*	*	*	*	*	*	*	*ITrd1c1	*
*k[f#c#g#d#]	*	*k[f#c#g#d#]	*	*k[f#c#g#d#]	*	*k[f#c#g#d#]	*	*k[f#c#g#d#]	*	*	*k[f#c#g#d#]	*
*E:	*	*E:	*	*E:	*	*E:	*	*E:	*	*	*E:	*
*M2/4	*	*M2/4	*	*M2/4	*	*M2/4	*	*M2/4	*	*	*M2/4	*
=1	=1	=1	=1	=1	=1	=1	=1	=1	=1	=1	=1	=1
*8\right	*	*	*	*	*	*	*	*	*	*	*	*
!	!	!	!	!	!	!	!	!LO:TX:a:t=34.	!	!	!LO:TX:a:t=4	!
!	!	!	!	!	!	!	!	!	!	!	!LO:N:vis=00	!
!	!	!LO:TX:a:i:t=Andnte	!LO:DY:b=2:rj:t=for	!LO:TX:b:i:t=Andante	!LO:DY:b:t=for	!LO:TX:a:i:t=Andante	!LO:DY:b:t=for	!LO:TX:a:i:t=Andante	!	!	!LO:TX:a:i:t=Anda	!
!	!	!LO:TX:b:t=P:problem:przy kluczu inny układ krzyżyków	!	!	!	!	!	!	!	!	!LO:TX:b:t=P:problem:instrument zapisany in H	!
8.E\L	.	2ryy	f	8.e/L	f	8.e/L	f	2r	.	.	0r	.
*16\right	*	*	*	*	*	*	*	*	*	*	*	*
16F#\K	.	.	.	16f#/K	.	16f#/K	.	.	.	.	.	.
8.G#\	.	.	.	8.g#/	.	8.g#/	.	.	.	.	.	.
16E\Jk	.	.	.	16e/Jk	.	16e/Jk	.	.	.	.	.	.
=2	=2	=2	=2	=2	=2	=2	=2	=2	=2	=2	=2	=2
*	*	*	*	*8\right	*	*	*	*	*	*	*	*
!LO:TX:b:t=P:problem:mixed beam	!	!	!	!LO:TX:b:t=P:problem:mixed beam	!	!	!	!	!	!	!	!
8B\L	.	2ryy	.	8b\L	.	8b/L	.	2r	.	.	.	.
8BB/J	.	.	.	8B/J	.	8B/J	.	.	.	.	.	.
4r	.	.	.	4r	.	4r	.	.	.	.	.	.
=3	=3	=3	=3	=3	=3	=3	=3	=3	=3	=3	=3	=3
8.C#\L	.	2ryy	.	8.c#/L	.	8.c#/L	.	2r	.	.	.	.
16D#\K	.	.	.	16d#/	.	16d#/Jk	.	.	.	.	.	.
8.E\	.	.	.	8.e/	.	8.e/L	.	.	.	.	.	.
16C#\Jk	.	.	.	16c#/Jk	.	16c#/Jk	.	.	.	.	.	.
=4	=4	=4	=4	=4	=4	=4	=4	=4	=4	=4	=4	=4
!LO:TX:b:t=P:problem:mixed beam	!	!	!	!	!	!	!	!	!	!	!	!
8G#\L	.	2ryy	.	8g#/L	.	8g#/L	.	2r	.	.	.	.
8GG#/J	.	.	.	8G#/J	.	8G#/J	.	.	.	.	.	.
4r	.	.	.	4r	.	4r	.	.	.	.	.	.
=5	=5	=5	=5	=5	=5	=5	=5	=5	=5	=5	=5	=5
!LO:TX:a:t=P:problem:mixed beam	!	!	!LO:DY:b=2:t=p&colon;	!	!	!LO:TX:a:t=1	!	!	!	!	!	!
8AA/L	.	2ryy	p	8r	.	2r	.	2r	.	.	8r	.
*	*	*	*	*	*	*	*	*	*	*	*16\right	*
!	!	!	!	!	!	!	!	!	!	!	!LO:TX:b:i:t=poco	!
8A\	.	.	.	16a/LL	.	.	.	.	.	.	(16a\LL	.
.	.	.	.	16b/JJ	.	.	.	.	.	.	16b\JJ)	.
.	.	.	.	16qqdd#/	.	.	.	.	.	.	.	.
8A\	.	.	.	8cc#\L	.	.	.	.	.	.	16dd#\LL	.
.	.	.	.	.	.	.	.	.	.	.	16cc#\	.
*	*	*	*	*16\right	*	*	*	*	*	*	*	*
8A\J	.	.	.	16b\L	.	.	.	.	.	.	16b\	.
.	.	.	.	16a\JJ	.	.	.	.	.	.	16a\JJ	.
=6	=6	=6	=6	=6	=6	=6	=6	=6	=6	=6	=6	=6
*tremolo	*	*	*	*	*	*	*	*	*	*	*	*
*2\right	*	*	*	*	*	*16\right	*	*	*	*	*8\right	*
!	!	!	!	!LO:TX:b:t=P:problem:mixed beam	!	!LO:TX:b:i:t=Dolce	!	!	!	!	!LO:TX:b:t=P:problem:mixed beam	!
8G#\L	x 6	2ryy	.	8ee\L	.	8r	.	2r	.	.	8ee^>\L	.
8G#\	.	.	.	8e/J	.	16ee\LL	.	.	.	.	8e/J	.
.	.	.	.	.	.	16ff#\JJ	.	.	.	.	.	.
.	.	.	.	.	.	8qqaa/	.	.	.	.	.	.
*	*	*	*	*	*	*8\right	*	*	*	*	*	*
8G#\	.	.	.	8r	.	8gg#\L	.	.	.	.	8r	.
8G#\J	.	.	.	8ee\	.	16ff#\L	.	.	.	.	8ee\	.
.	.	.	.	.	.	16ee\JJ	.	.	.	.	.	.
*Xtremolo	*	*	*	*	*	*	*	*	*	*	*	*
=7	=7	=7	=7	=7	=7	=7	=7	=7	=7	=7	=7	=7
!LO:TX:b:t=P:problem:mixed beam	!	!	!	!	!	!	!	!	!	!	!	!
*	*	*	*	*	*	*	*	*	*	*	*4\right	*
8F#\L	x 7	2ryy	.	8ee\L	.	8.bb\L	.	2r	.	.	4ee\	.
8F#\	.	.	.	8ee\	.	.	.	.	.	.	.	.
.	.	.	.	.	.	16gg#\Jk	.	.	.	.	.	.
*	*	*	*	*	*	*4\right	*	*	*	*	*	*
8BB/	x 7	.	.	8dd#\	.	4aa\	.	.	.	.	4dd#\	.
8BB/J	.	.	.	8dd#\J	.	.	.	.	.	.	.	.
=8	=8	=8	=8	=8	=8	=8	=8	=8	=8	=8	=8	=8
!	!	!	!	!LO:TX:b:t=P:problem:mixed beam	!	!	!	!	!	!	!	!
*4\right	*	*	*	*	*	*	*	*	*	*	*	*
.	.	.	.	.	.	8qqaa/	.	.	.	.	.	.
!	!	!	!	!	!	!	!	!	!	!	!LO:TX:a:t=e	!
4E\	.	2ryy	.	8ee\L	.	4gg#\	.	2r	.	.	8dd#\L	.
.	.	.	.	16e/L	.	.	.	.	.	.	16ee\L	.
.	.	.	.	16f#/JJ	.	.	.	.	.	.	16ff#\JJ	.
.	.	.	.	.	.	.	.	.	.	.	8qqff#/	.
4r	.	.	.	8g#/L	.	8r	.	.	.	.	8gg#\L	.
.	.	.	.	16f#/L	.	16r	.	.	.	.	16ff#\L	.
.	.	.	.	16e/JJ	.	16e/	.	.	.	.	16ee\JJ	.
=9	=9	=9	=9	=9	=9	=9	=9	=9	=9	=9	=9	=9
!	!	!	!	!	!	!	!	!	!	!	!LO:LB:g=original	!
!LO:TX:b:t=P:problem:mixed beam	!	!	!	!LO:TX:b:i:t=poco	!	!	!	!	!	!	!	!
8F#\L	x 7	2ryy	.	8e/L	.	8.b/L	.	2r	.	.	8.bb\L	.
8F#\	.	.	.	8e/	.	.	.	.	.	.	.	.
.	.	.	.	.	.	16g#/Jk	.	.	.	.	16gg#\Jk	.
.	.	.	.	.	.	8qqb/	.	.	.	.	.	.
8BB/	x 7	.	.	8d#/	.	4a/	.	.	.	.	8bb\L	.
8BB/J	.	.	.	8d#/J	.	.	.	.	.	.	8aa\J	.
=10	=10	=10	=10	=10	=10	=10	=10	=10	=10	=10	=10	=10
!LO:TX:b:t=P:problem:mixed beam	!	!	!	!	!	!	!	!	!	!	!	!
.	.	.	.	.	.	8qqa/	.	.	.	.	.	.
8E\L	.	2ryy	.	8e/L	.	4g#/	.	2r	.	.	4gg#\	.
!	!	!	!	!LO:TX:b:t=P:problem:potrójny łuk	!	!	!	!	!	!	!	!
8EE/	.	.	.	(16g#/L	.	.	.	.	.	.	.	.
.	.	.	.	16e/JJ)	.	.	.	.	.	.	.	.
8E\J	.	.	.	(16g#/LL	.	16r	.	.	.	.	8r	.
!	!	!	!	!	!	!LO:TX:a:t=P:problem:mixed beam	!LO:DY:b:t=for	!	!	!	!	!
.	.	.	.	16e/)	.	16e/LL	f	.	.	.	.	.
!	!	!	!	!	!	!	!	!	!	!	!	!LO:DY:b:t=for&colon;
8r	.	.	.	(16g#/	.	16ee\	.	.	.	.	8gg#\	f
.	.	.	.	16e/JJ)	.	16ddn\JJ	.	.	.	.	.	.
=11	=11	=11	=11	=11	=11	=11	=11	=11	=11	=11	=11	=11
!	!	!	!	!LO:LB:g=original	!	!	!	!	!	!	!	!
!	!	!	!	!	!	!LO:SIC:s=16ddn:v	!	!	!	!	!	!
*tremolo	*	*	*	*	*	*	*	*	*	*	*	*
8E\L	6 n4/	2ryy	.	(16a/LL	.	16dd#\LL	.	2r	.	.	4aa\	.
.	.	.	.	16e/)	.	16cc#\J	.	.	.	.	.	.
8E\	.	.	.	(16a/	.	8cc#\J	.	.	.	.	.	.
.	.	.	.	16e/JJ)	.	.	.	.	.	.	.	.
*	*	*	*	*rep	*	*	*	*	*	*	*	*
8E\	.	.	.	(16a/LL	.	16r	.	.	.	.	4aa\	.
.	.	.	.	16e/)	.	16cc#'\LL	.	.	.	.	.	.
8E\J	.	.	.	(16a/	.	16dd#'\	.	.	.	.	.	.
.	.	.	.	16e/JJ)	.	16ee'\JJ	.	.	.	.	.	.
*	*	*	*	*Xrep	*	*	*	*	*	*	*	*
=12	=12	=12	=12	=12	=12	=12	=12	=12	=12	=12	=12	=12
*	*	*	*	*	*	*	*	*	*	*	*2\right	*
8E\L	5 3	2ryy	.	16g#/LL	.	8b/L	.	2r	.	.	2gg#\	.
.	.	.	.	16e/	.	.	.	.	.	.	.	.
8E\	.	.	.	16g#/	.	8e/J	.	.	.	.	.	.
.	.	.	.	16e/JJ	.	.	.	.	.	.	.	.
*	*	*	*	*rep	*	*	*	*	*	*	*	*
8E\	.	.	.	16g#/LL	.	16r	.	.	.	.	.	.
!	!	!	!	!	!	!LO:TX:a:t=P:problem:mixed beam	!	!	!	!	!	!
.	.	.	.	16e/	.	16e/LL	.	.	.	.	.	.
8E\J	.	.	.	16g#/	.	16ee\	.	.	.	.	.	.
.	.	.	.	16e/JJ	.	16ddn\JJ	.	.	.	.	.	.
*	*	*	*	*Xrep	*	*	*	*	*	*	*	*
=13	=13	=13	=13	=13	=13	=13	=13	=13	=13	=13	=13	=13
!LO:LB:g=original	!	!LO:LB:g=original	!	!	!	!LO:LB:g=original	!	!	!	!	!	!
!	!	!	!	!	!	!LO:SIC:s=16ddn:v	!	!	!	!	!	!
8E\L	6 4	2ryy	.	(16a/LL	.	16dd#\LL	.	2r	.	.	2aa\	.
.	.	.	.	16e/)	.	16cc#\J	.	.	.	.	.	.
8E\	.	.	.	(16a/	.	8cc#\J	.	.	.	.	.	.
.	.	.	.	16e/JJ)	.	.	.	.	.	.	.	.
8E\	.	.	.	(16a/LL	.	16r	.	.	.	.	.	.
.	.	.	.	16e/)	.	16cc#\LL	.	.	.	.	.	.
8E\J	.	.	.	(16a/	.	16dd#\	.	.	.	.	.	.
.	.	.	.	16e/JJ)	.	16ee\JJ	.	.	.	.	.	.
=14	=14	=14	=14	=14	=14	=14	=14	=14	=14	=14	=14	=14
4E\	5_ 3_	2ryy	.	16g#/LL	.	8b/L	.	2r	.	.	4gg#\	.
.	.	.	.	16e/	.	.	.	.	.	.	.	.
.	.	.	.	16g#/	.	8e/J	.	.	.	.	.	.
.	.	.	.	16e/JJ	.	.	.	.	.	.	.	.
16r	x _	.	.	4b/	.	4bb\	.	.	.	.	4r	.
16E\LL	x x	.	.	.	.	.	.	.	.	.	.	.
16F#\	.	.	.	.	.	.	.	.	.	.	.	.
16G#\JJ	.	.	.	.	.	.	.	.	.	.	.	.
=15	=15	=15	=15	=15	=15	=15	=15	=15	=15	=15	=15	=15
!	!	!	!	!	!	!	!	!	!	!	!LO:TX:a:t=5	!
!	!	!	!	!	!	!	!	!	!	!	!LO:N:vis=00	!
4A\	.	2ryy	.	16b/LL	.	16bb\LL	.	2r	.	.	0r	.
.	.	.	.	16a/	.	16aa\	.	.	.	.	.	.
.	.	.	.	16g#/	.	16gg#\	.	.	.	.	.	.
.	.	.	.	16f#/JJ	.	16ff#\JJ	.	.	.	.	.	.
8r	.	.	.	16e#X/LL	.	16ee#X\LL	.	.	.	.	.	.
.	.	.	.	16f#/	.	16ff#\	.	.	.	.	.	.
8A#X\	x 6	.	.	16c#/	.	16cc#\	.	.	.	.	.	.
.	.	.	.	16f#/JJ	.	16ff#\JJ	.	.	.	.	.	.
=16	=16	=16	=16	=16	=16	=16	=16	=16	=16	=16	=16	=16
!LO:TX:b:t=P:problem:mixed beam	!	!	!	!LO:TX:a:t=P:problem:takt wstawiony	!	!	!	!	!	!	!	!
.	.	.	.	.	.	8qqee/	.	.	.	.	.	.
8B\L	.	2ryy	.	4d#/	.	4dd#\	.	2r	.	.	.	.
8BB/	.	.	.	.	.	.	.	.	.	.	.	.
8BB/	.	.	.	16r	.	16r	.	.	.	.	.	.
.	.	.	.	16g#/LL	.	16gg#\LL	.	.	.	.	.	.
8BB/J	.	.	.	16f#/	.	16ff#\	.	.	.	.	.	.
.	.	.	.	16e/JJ	.	16ee\JJ	.	.	.	.	.	.
=17	=17	=17	=17	=17	=17	=17	=17	=17	=17	=17	=17	=17
8BB/L	.	2ryy	.	(16d#/LL	.	(16dd#\LL	.	2r	.	.	.	.
.	.	.	.	16e/)	.	16ee\)	.	.	.	.	.	.
8BB/	.	.	.	(16A#X/	.	(16a#X\	.	.	.	.	.	.
.	.	.	.	16c#/JJ)	.	16cc#\JJ)	.	.	.	.	.	.
8BB/	.	.	.	16B`/LL	.	16b`\LL	.	.	.	.	.	.
.	.	.	.	(16g#/	.	(16gg#\	.	.	.	.	.	.
8BB/J	.	.	.	16f#/	.	16ff#\	.	.	.	.	.	.
.	.	.	.	16e/JJ)	.	16ee\JJ)	.	.	.	.	.	.
=18	=18	=18	=18	=18	=18	=18	=18	=18	=18	=18	=18	=18
!	!	!	!	!	!	!LO:TX:a:t=P:problem:dziwny znaczek nad nutą	!	!	!	!	!	!
8BB/L	.	2ryy	.	16d#/LL	.	(16dd#\LL	.	2r	.	.	.	.
.	.	.	.	16e/	.	16ee\)	.	.	.	.	.	.
8BB/	.	.	.	(16A#X/	.	(16a#X\	.	.	.	.	.	.
.	.	.	.	16c#/JJ)	.	16cc#\JJ)	.	.	.	.	.	.
8BB/	.	.	.	16B`/LL	.	16b`\LL	.	.	.	.	.	.
.	.	.	.	(16g#/	.	(16bb\	.	.	.	.	.	.
8BB/J	.	.	.	16f#/	.	16aa\	.	.	.	.	.	.
.	.	.	.	16e/JJ)	.	16gg#\JJ)	.	.	.	.	.	.
=19	=19	=19	=19	=19	=19	=19	=19	=19	=19	=19	=19	=19
!LO:TX:b:t=P:problem:mixed beam	!	!	!	!	!	!	!	!	!	!	!	!
8BB/L	.	2ryy	.	8d#/	.	16ff#\LL	.	2r	.	.	2r	.
.	.	.	.	.	.	16dd#\	.	.	.	.	.	.
*	*	*	*	*4\right	*	*	*	*	*	*	*	*
8E/	.	.	.	4b\	.	16ee\	.	.	.	.	.	.
.	.	.	.	.	.	16cc#\JJ	.	.	.	.	.	.
8F#/	.	.	.	.	.	4cc#T\	.	.	.	.	.	.
8FF#\J	.	.	.	8a#X/	.	.	.	.	.	.	.	.
=20	=20	=20	=20	=20	=20	=20	=20	=20	=20	=20	=20	=20
*	*	*	*	*	*	*tremolo	*	*	*	*	*	*
!	!	!LO:TX:b:i:t=Dolce poce	!	!	!	!	!LO:DY:b	!	!	!	!LO:TX:b:i:t=Dolce	!
4BB/	.	16r	.	4b\	.	16b\LL	p	2r	.	.	16r	.
*	*	*16\right	*	*	*	*	*	*	*	*	*	*
.	.	16dd#\LL	.	.	.	16b\	.	.	.	.	16dd#\LL	.
.	.	16dd#\	.	.	.	16b\	.	.	.	.	16dd#\	.
.	.	16dd#\JJ	.	.	.	16b\JJ	.	.	.	.	16dd#\JJ	.
*	*	*	*	*	*	*Xtremolo	*	*	*	*	*	*
8r	.	16.dd#t\LL	.	4r	.	16bT\LL	.	.	.	.	16dd#t\LL	.
*	*	*	*	*	*	*32\right	*	*	*	*	*32\right	*
.	.	.	.	.	.	32a#X\L	.	.	.	.	32cc#\L	.
*	*	*32\right	*	*	*	*	*	*	*	*	*	*
!	!	!LO:N:vis=32	!	!	!	!	!	!	!	!	!	!
.	.	64cc#\LL	.	.	.	32b\JJJ	.	.	.	.	32dd#\JJJ	.
!	!	!LO:N:vis=32	!	!	!	!	!	!	!	!	!	!
.	.	64dd#\JJJJ	.	.	.	.	.	.	.	.	.	.
8FF#/	.	16ee\LL	.	.	.	16cc#\LL	.	.	.	.	16ee\LL	.
.	.	16cc#\JJ	.	.	.	16a#\JJ	.	.	.	.	16cc#\JJ	.
=21	=21	=21	=21	=21	=21	=21	=21	=21	=21	=21	=21	=21
!	!	!	!	!LO:TX:a:t=5	!	!	!	!	!	!	!	!
!	!	!	!	!LO:N:vis=00	!	!	!	!	!	!	!	!
4BB/	.	16dd#\LL	.	0r	.	16b\LL	.	2r	.	.	16dd#\LL	.
.	.	16ff#\	.	.	.	16dd#\	.	.	.	.	16ff#\	.
.	.	16ff#\	.	.	.	16dd#\	.	.	.	.	16ff#\	.
.	.	16ff#\JJ	.	.	.	16dd#\JJ	.	.	.	.	16ff#\JJ	.
!	!	!	!	!	!	!	!	!	!	!	!LO:SIC:s=16gg:v	!
4r	.	16.ff#\LL	.	.	.	16dd#t\LL	.	.	.	.	16gg#t\LL	.
.	.	.	.	.	.	32cc#\L	.	.	.	.	32ee\L	.
!	!	!LO:N:vis=32	!	!	!	!	!	!	!	!	!	!
.	.	64ee\LL	.	.	.	32dd#\JJJ	.	.	.	.	32ff#\JJJ	.
!	!	!LO:N:vis=32	!	!	!	!	!	!	!	!	!	!
.	.	64ff#\JJJJ	.	.	.	.	.	.	.	.	.	.
.	.	16gg#\LL	.	.	.	16ee\LL	.	.	.	.	16gg#\LL	.
.	.	16ee\JJ	.	.	.	16cc#\JJ	.	.	.	.	16ee\JJ	.
=22	=22	=22	=22	=22	=22	=22	=22	=22	=22	=22	=22	=22
!LO:PB:g=original	!	!LO:PB:g=original	!	!	!	!	!	!	!	!	!	!
*	*	*24\right	*	*	*	*24\right	*	*	*	*	*24\right	*
*	*	*	*	*	*	*	*	*	*	*	*Xtuplet	*
!	!	!	!	!	!	!	!	!	!	!	!LO:SIC:s=16ee:v	!
4BB/	.	(24dd#\LL	.	.	.	(24b\LL	.	2r	.	.	24cc#\LL	.
.	.	24ee\	.	.	.	24cc#\	.	.	.	.	24ee\	.
.	.	24ff#\JJ)	.	.	.	24dd#\JJ)	.	.	.	.	24ff#\JJ	.
!	!	!	!	!	!	!LO:LB:g=original	!	!	!	!	!	!
.	.	(24ff#\LL	.	.	.	(24dd#\LL	.	.	.	.	24ff#\LL	.
.	.	24gg#\	.	.	.	24ee\	.	.	.	.	24gg#\	.
.	.	24aa'\JJ)	.	.	.	24ff#\JJ)	.	.	.	.	24aa\JJ	.
16r	.	4aaT\	.	.	.	4ff#\	.	.	.	.	4aaT\	.
16BB/LL	.	.	.	.	.	.	.	.	.	.	.	.
16C#/	.	.	.	.	.	.	.	.	.	.	.	.
16D#/JJ	.	.	.	.	.	.	.	.	.	.	.	.
=23	=23	=23	=23	=23	=23	=23	=23	=23	=23	=23	=23	=23
*	*	*	*	*	*	*tremolo	*	*	*	*	*	*
!LO:TX:b:t=P:problem:mixed beam	!	!	!	!	!	!	!	!	!	!	!	!
8E\L	.	16ee\LL	.	.	.	16ee\LL	.	2r	.	.	16ee\LL	.
.	.	16gg#\	.	.	.	16ee\	.	.	.	.	16gg#\	.
8EE/J	.	16gg#\	.	.	.	16ee\	.	.	.	.	16gg#\	.
.	.	16gg#\JJ	.	.	.	16ee\JJ	.	.	.	.	16gg#\JJ	.
*	*	*	*	*	*	*Xtremolo	*	*	*	*	*	*
8r	.	16.gg#t\LL	.	.	.	16eeT\LL	.	.	.	.	16gg#t\LL	.
.	.	.	.	.	.	32dd#\L	.	.	.	.	32ff#\L	.
!	!	!LO:N:vis=32	!	!	!	!	!	!	!	!	!	!
.	.	64ff#\LL	.	.	.	32ee\JJJ	.	.	.	.	32gg#\JJJ	.
!	!	!LO:N:vis=32	!	!	!	!	!	!	!	!	!	!
.	.	64gg#\JJJJ	.	.	.	.	.	.	.	.	.	.
8BB/	.	16aa\LL	.	.	.	16ff#\LL	.	.	.	.	16aa\LL	.
.	.	16ff#\JJ	.	.	.	16dd#\JJ	.	.	.	.	16ff#\JJ	.
=24	=24	=24	=24	=24	=24	=24	=24	=24	=24	=24	=24	=24
*	*	*	*	*	*	*tremolo	*	*	*	*	*	*
!LO:TX:b:t=P:problem:mixed beam	!	!	!	!	!	!	!	!	!	!	!	!
8E\L	.	16ee\LL	.	.	.	16ee\LL	.	2r	.	.	16ee\LL	.
.	.	16gg#\	.	.	.	16ee\	.	.	.	.	16gg#\	.
8EE/J	.	16gg#\	.	.	.	16ee\	.	.	.	.	16gg#\	.
.	.	16gg#\JJ	.	.	.	16ee\JJ	.	.	.	.	16gg#\JJ	.
*	*	*	*	*	*	*Xtremolo	*	*	*	*	*	*
!	!	!	!	!	!	!	!	!	!	!	!LO:LB:g=original	!
8r	.	16.gg#t\LL	.	.	.	16eeT\LL	.	.	.	.	16gg#t\LL	.
.	.	.	.	.	.	32dd#\L	.	.	.	.	32ff#\L	.
!	!	!LO:N:vis=32	!	!	!	!	!	!	!	!	!	!
.	.	64ff#\LL	.	.	.	32ee\JJJ	.	.	.	.	32gg#\JJJ	.
!	!	!LO:N:vis=32	!	!	!	!	!	!	!	!	!	!
.	.	64gg#\JJJJ	.	.	.	.	.	.	.	.	.	.
8BB/	.	16aa\LL	.	.	.	16ff#\LL	.	.	.	.	16aa\LL	.
.	.	16ff#\JJ	.	.	.	16dd#\JJ	.	.	.	.	16ff#\JJ	.
=25	=25	=25	=25	=25	=25	=25	=25	=25	=25	=25	=25	=25
!	!	!	!LO:DY:b:t=for	!	!	!	!	!	!	!	!	!
4EE/	.	(24ee\LL	f	2r	.	4ee\	.	2r	.	.	24ee\LL	.
!	!	!	!	!	!	!	!	!	!	!	!	!LO:DY:b:t=fo
.	.	24gg#\	.	.	.	.	.	.	.	.	24gg#\	f
.	.	24ff#\JJ)	.	.	.	.	.	.	.	.	24ff#\JJ	.
.	.	(24ee\LL	.	.	.	.	.	.	.	.	(24ee\LL	.
.	.	24dd#\	.	.	.	.	.	.	.	.	24dd#\	.
.	.	24cc#\JJ)	.	.	.	.	.	.	.	.	24cc#\JJ)	.
4r	.	(24b\LL	.	.	.	4r	.	.	.	.	(24b\LL	.
.	.	24a\	.	.	.	.	.	.	.	.	24a\)	.
.	.	24g#\JJ)	.	.	.	.	.	.	.	.	24g#\JJ	.
.	.	(24f#\LL	.	.	.	.	.	.	.	.	(24f#\LL	.
.	.	24e\	.	.	.	.	.	.	.	.	24e\)	.
.	.	24d#\JJ)	.	.	.	.	.	.	.	.	24d#\JJ	.
=26	=26	=26	=26	=26	=26	=26	=26	=26	=26	=26	=26	=26
8A\L	.	4c#/	.	4r	.	4r	.	2r	.	.	4c#/	.
8A\	.	.	.	.	.	.	.	.	.	.	.	.
!	!	!	!	!	!LO:DY:b:t=fo	!	!	!	!	!	!	!
8G#\	.	4r	.	4b\	f	4ee#X\	.	.	.	.	4r	.
8F#\J	.	.	.	.	.	.	.	.	.	.	.	.
=27	=27	=27	=27	=27	=27	=27	=27	=27	=27	=27	=27	=27
!	!	!	!	!LO:LB:g=original	!	!	!	!	!	!	!	!
!LO:TX:b:t=P:problem:mixed beam	!	!	!	!	!	!	!LO:DY:b:t=for	!	!	!	!	!
8G#\L	.	2ryy	.	8cc#\L	.	(24ff#\LL	f	2r	.	.	2r	.
.	.	.	.	.	.	24aa\	.	.	.	.	.	.
.	.	.	.	.	.	24gg#\JJ)	.	.	.	.	.	.
*	*	*	*	*24\right	*	*	*	*	*	*	*	*
8A\	.	.	.	(24cc#\L	.	24aa\LL	.	.	.	.	.	.
.	.	.	.	24b\	.	24gg#\	.	.	.	.	.	.
.	.	.	.	24a\JJ)	.	24ff#\JJ	.	.	.	.	.	.
8B\	.	.	.	8g#/L	.	8ee\L	.	.	.	.	.	.
8BB/J	.	.	.	8f#/J	.	8dd#\J	.	.	.	.	.	.
=28	=28	=28	=28	=28	=28	=28	=28	=28	=28	=28	=28	=28
!LO:LB:g=original	!	!LO:LB:g=original	!	!	!	!	!	!	!	!	!	!
!LO:SIC:s=4E:v	!	!	!LO:DY:b:t=for	!	!	!	!	!	!	!	!	!
4AA/	.	(24ee\LL	f	4g#/	.	4ee\	.	2r	.	.	24ee\LL	.
.	.	24gg#\	.	.	.	.	.	.	.	.	24gg#\	.
!	!	!	!	!	!	!	!	!	!	!	!	!LO:DY:b:t=for
.	.	24ff#\JJ)	.	.	.	.	.	.	.	.	24ff#\JJ	f
.	.	(24ee\LL	.	.	.	.	.	.	.	.	24ee\LL	.
.	.	24dd#\	.	.	.	.	.	.	.	.	24dd#\	.
.	.	24cc#\JJ)	.	.	.	.	.	.	.	.	24cc#\JJ	.
4r	.	(24b\LL	.	4r	.	4r	.	.	.	.	24b\LL	.
.	.	24a\	.	.	.	.	.	.	.	.	24a\	.
.	.	24g#\JJ)	.	.	.	.	.	.	.	.	24g#\JJ	.
.	.	(24f#\LL	.	.	.	.	.	.	.	.	24f#\LL	.
.	.	24e\	.	.	.	.	.	.	.	.	24e\	.
.	.	24d#\JJ)	.	.	.	.	.	.	.	.	24d#\JJ	.
=29	=29	=29	=29	=29	=29	=29	=29	=29	=29	=29	=29	=29
8A\L	.	4c#/	.	4r	.	4r	.	2r	.	.	4c#/	.
8A\	.	.	.	.	.	.	.	.	.	.	.	.
8A\	.	4r	.	4ee\	.	4ccc#\	.	.	.	.	4r	.
8A\J	.	.	.	.	.	.	.	.	.	.	.	.
=30	=30	=30	=30	=30	=30	=30	=30	=30	=30	=30	=30	=30
!LO:TX:b:t=P:problem:mixed beam	!	!	!	!	!LO:DY:b:t=for	!	!LO:DY:b:t=for	!	!	!	!	!
8G#\L	x 6	2r	.	8ee\	f	(24bb\LL	f	2r	.	.	2r	.
.	.	.	.	.	.	24aa\	.	.	.	.	.	.
.	.	.	.	.	.	24bb\JJ)	.	.	.	.	.	.
8A\	.	.	.	4ee\	.	24ccc#\LL	.	.	.	.	.	.
.	.	.	.	.	.	24bb\	.	.	.	.	.	.
.	.	.	.	.	.	24aa\JJ	.	.	.	.	.	.
8B\	x 7	.	.	.	.	8gg#\L	.	.	.	.	.	.
8BB/J	x 3	.	.	8dd#\	.	8ff#\J	.	.	.	.	.	.
=31	=31	=31	=31	=31	=31	=31	=31	=31	=31	=31	=31	=31
!	!	!LO:TX:b:t=P:problem:w taktach 31-33 oznaczenia "SIC" na podstawie partii klarnetu	!	!LO:TX:b:t=P:problem:mixed beam	!LO:DY:b	!	!LO:DY:b:t=p&colon;	!	!	!	!	!
8E\L	.	8r	.	8ee\L	p	8ee\L	p	2r	.	.	8r	.
!	!	!LO:TX:b:i:t=poco	!	!	!	!	!	!	!	!	!LO:TX:b:i:t=Dolce	!
8E\	.	16aa#X\LL	.	8g#/	.	8b\	.	.	.	.	16aa#\LL	.
.	.	16bb\JJ	.	.	.	.	.	.	.	.	16bb\JJ	.
!	!	!LO:SIC:s=16ff##:v	!	!	!	!	!	!	!	!	!	!
8E\	.	16ff#\LL	.	8g#/	.	8b\	.	.	.	.	16ff##X\LL	.
.	.	16gg#\	.	.	.	.	.	.	.	.	16gg#\	.
8E\J	.	16dd#\	.	8g#/J	.	8b\J	.	.	.	.	16dd#\	.
.	.	16ee\JJ	.	.	.	.	.	.	.	.	16ee\JJ	.
=32	=32	=32	=32	=32	=32	=32	=32	=32	=32	=32	=32	=32
*	*	*	*	*tremolo	*	*tremolo	*	*	*	*	*	*
*	*	*	*	*	*	*2\right	*	*	*	*	*	*
!	!	!	!	!LO:N:vis=2.:problem:nie wyświetla się	!	!	!	!	!	!	!	!
8E\L	.	16a#X\LL	.	8g#/L	.	8b\L	.	2r	.	.	16a#\LL	.
.	.	16b\	.	.	.	.	.	.	.	.	16b\	.
!	!	!LO:SIC:s=16aa#:v	!	!	!	!	!	!	!	!	!	!
8E\	.	16aa\	.	8g#/	.	8b\	.	.	.	.	16aa#\	.
.	.	16bb\JJ	.	.	.	.	.	.	.	.	16bb\JJ	.
!	!	!LO:SIC:s=16ff##:v	!	!	!	!	!	!	!	!	!	!
8E\	.	16ff#\LL	.	8g#/	.	8b\	.	.	.	.	16ff##X\LL	.
.	.	16gg#\	.	.	.	.	.	.	.	.	16gg#\	.
8E\J	.	16dd#\	.	8g#/J	.	8b\J	.	.	.	.	16dd#\	.
.	.	16ee\JJ	.	.	.	.	.	.	.	.	16ee\JJ	.
=33	=33	=33	=33	=33	=33	=33	=33	=33	=33	=33	=33	=33
!	!	!	!	!	!	!	!	!	!	!	!LO:LB:g=original	!
!	!	!	!	!LO:N:vis=2.:problem:nie wyświetla się	!	!	!	!	!	!	!	!
8E\L	.	16a#X\LL	.	8g#/L	.	8b\L	.	2r	.	.	16a#\LL	.
.	.	16b\	.	.	.	.	.	.	.	.	16b\	.
8E\	.	16dd#\	.	8g#/	.	8b\	.	.	.	.	16dd#\	.
.	.	16ee\JJ	.	.	.	.	.	.	.	.	16ee\JJ	.
!	!	!LO:SIC:s=16ff##:v	!	!	!	!	!	!	!	!	!	!
8E\	.	16ff#\LL	.	8g#/	.	8b\	.	.	.	.	16ff##X\LL	.
.	.	16gg#\	.	.	.	.	.	.	.	.	16gg#\	.
8E\J	.	16aa#X\	.	8g#/J	.	8b\J	.	.	.	.	16aa#\	.
.	.	16bb\JJ	.	.	.	.	.	.	.	.	16bb\JJ	.
*	*	*	*	*Xtremolo	*	*Xtremolo	*	*	*	*	*	*
=34	=34	=34	=34	=34	=34	=34	=34	=34	=34	=34	=34	=34
*	*	*4\right	*	*	*	*	*	*	*	*	*	*
4E\	.	4ee\	.	4g#/	.	4b\	.	2r	.	.	4ee\	.
4r	.	4r	.	4r	.	4r	.	.	.	.	4r	.
=35	=35	=35	=35	=35	=35	=35	=35	=35	=35	=35	=35	=35
!LO:LB:g=original	!	!LO:LB:g=original	!	!	!	!	!	!	!	!	!	!
*	*	*	*	*	*	*	*	*8\right	*	*	*	*
!	!	!	!LO:DY:b=2:t=for	!	!LO:DY:b:t=for	!	!LO:DY:b:t=for	!LO:TX:a:i:t=Solo	!	!LO:DY:b:rj:t=for	!LO:TX:a:t=4	!
!	!	!	!	!	!	!	!	!LO:TX:b:t=P:problem:litera "B" przed kluczem i znakami	!	!	!LO:N:vis=00	!
8.E'\L	.	2ryy	f	8.e/L	f	8.e/L	f	8.E\L	Be-	f	0r	.
*	*	*	*	*	*	*	*	*16\right	*	*	*	*
16F#'\K	.	.	.	16f#/K	.	16f#/K	.	16F#\Jk	.	.	.	.
8G#'\	.	.	.	8g#/	.	8g#/	.	8.G#\	.	.	.	.
8E\J	.	.	.	8e/J	.	8e/J	.	.	.	.	.	.
.	.	.	.	.	.	.	.	16E\	-ne	.	.	.
=36	=36	=36	=36	=36	=36	=36	=36	=36	=36	=36	=36	=36
!	!	!	!	!	!	!LO:LB:g=original	!	!	!	!	!	!
!LO:TX:b:t=P:problem:mixed beam	!	!	!	!LO:TX:b:t=P:problem:mixed beam	!	!	!	!	!	!	!	!
8B\L	.	2ryy	.	8b\L	.	8b/L	.	8B\	di-	.	.	.
8BB/J	.	.	.	8B/J	.	8B/J	.	8BB/	-ctus	.	.	.
4r	.	.	.	4r	.	4r	.	4r	.	.	.	.
=37	=37	=37	=37	=37	=37	=37	=37	=37	=37	=37	=37	=37
8.C#/L	.	2ryy	.	8.c#/L	.	8.c#/L	.	(8.C#/L	Be-	.	.	.
16D#/K	.	.	.	16d#/K	.	16d#/K	.	16D#/Jk)	.	.	.	.
8E/	.	.	.	8e/	.	8e/	.	8.E\	.	.	.	.
8C#/J	.	.	.	8c#/J	.	8c#/J	.	.	.	.	.	.
.	.	.	.	.	.	.	.	16C#/	-ne-	.	.	.
=38	=38	=38	=38	=38	=38	=38	=38	=38	=38	=38	=38	=38
!LO:TX:b:t=P:problem:mixed beam	!	!	!	!	!	!	!	!	!	!	!	!
8G#/L	.	2ryy	.	8g#/L	.	8g#/L	.	8G#\	-di-	.	.	.
8GG#/J	.	.	.	8G#/J	.	8G#/J	.	8GG#/	-ctus	.	.	.
4r	.	.	.	4r	.	4r	.	4r	.	.	.	.
=39	=39	=39	=39	=39	=39	=39	=39	=39	=39	=39	=39	=39
!LO:TX:b:t=P:problem:mixed beam	!	!	!	!	!	!LO:TX:a:t=1	!	!LO:TX:a:t=1	!	!	!	!
8AA/L	.	2ryy	.	8r	.	2r	.	2r	.	.	8r	.
!	!	!	!	!	!LO:DY:b:t=for	!	!	!	!	!	!	!LO:DY:b:t=for
8A\	.	.	.	16a/LL	f	.	.	.	.	.	16a\LL	f
.	.	.	.	16b/JJ	.	.	.	.	.	.	16b\JJ	.
8A\	.	.	.	8cc#\L	.	.	.	.	.	.	(16dd#\LL	.
.	.	.	.	.	.	.	.	.	.	.	16cc#\)	.
8A\J	.	.	.	16b\L	.	.	.	.	.	.	(16b\	.
.	.	.	.	16a\JJ	.	.	.	.	.	.	16a\JJ)	.
=40	=40	=40	=40	=40	=40	=40	=40	=40	=40	=40	=40	=40
!	!	!	!LO:DY:b=2	!LO:TX:b:t=P:problem:mixed beam	!	!	!	!	!	!	!LO:TX:b:t=P:problem:mixed beam	!
8G#\L	x 6	2ryy	p	8ee\L	.	8r	.	8r	.	.	8ee\L	.
!	!	!	!	!	!	!	!	!LO:TX:a:i:t=poco	!	!	!	!
8G#\	.	.	.	8e/J	.	16ee\LL	.	16E\LL	qui	.	8e/J	.
.	.	.	.	.	.	16ff#\JJ	.	(16F#\JJ	.	.	.	.
.	.	.	.	.	.	8qqaa/	.	.	.	.	.	.
8G#\	.	.	.	8r	.	8gg#\L	.	8G#\L)	ve-	.	8r	.
8G#\J	.	.	.	8ee\	.	16ff#\L	.	(16F#\L	.	.	8ee\	.
.	.	.	.	.	.	16ee\JJ	.	16E\JJ)	.	.	.	.
*Xtremolo	*	*	*	*	*	*	*	*	*	*	*	*
=41	=41	=41	=41	=41	=41	=41	=41	=41	=41	=41	=41	=41
!LO:TX:b:t=P:problem:mixed beam	!	!	!	!	!	!	!	!	!	!	!	!
*	*	*	*	*	*	*	*	*4\right	*	*	*	*
8F#\L	x 7	2ryy	.	8ee\L	.	8.bb\L	.	4B\	.	.	4ee\	.
8F#\	.	.	.	8ee\	.	.	.	.	.	.	.	.
.	.	.	.	.	.	16gg#\Jk	.	.	.	.	.	.
8BB/	.	.	.	8dd#\	.	4aaT\	.	4A\	.	.	4dd#\	.
8BB/J	.	.	.	8dd#\J	.	.	.	.	.	.	.	.
=42	=42	=42	=42	=42	=42	=42	=42	=42	=42	=42	=42	=42
!	!	!	!	!LO:LB:g=original	!	!	!	!LO:LB:g=original	!	!	!	!
!	!	!	!	!LO:TX:b:t=P:problem:mixed beam	!	!	!	!	!	!	!	!
4E\	.	2ryy	.	8ee\L	.	4gg#\	.	4G#\	-nit	.	8ee\L	.
.	.	.	.	16e/L	.	.	.	.	.	.	16ee\L	.
.	.	.	.	16f#/JJ	.	.	.	.	.	.	16ff#\JJ	.
.	.	.	.	.	.	.	.	.	.	.	8qqff#/	.
4r	.	.	.	8g#/L	.	8r	.	8r	.	.	8gg#\L	.
.	.	.	.	16f#/L	.	16r	.	16r	.	.	16ff#\L	.
!	!	!	!	!	!	!	!	!LO:N:vis=8	!	!	!	!
.	.	.	.	16e/JJ	.	16e/	.	16E\	qui	.	16ee\JJ	.
=43	=43	=43	=43	=43	=43	=43	=43	=43	=43	=43	=43	=43
!LO:TX:b:t=P:problem:mixed beam	!	!	!	!	!	!	!	!	!	!	!	!
8F#\L	x 7	2ryy	.	8e/L	.	8.b/L	.	(8.B\L	ve-	.	8.bb\L	.
8F#\	.	.	.	8e/	.	.	.	.	.	.	.	.
.	.	.	.	.	.	16g#/Jk	.	16G#\Jk	.	.	16ff#\Jk	.
.	.	.	.	.	.	8qqb/	.	.	.	.	(>4qqbb/	.
8BB/	x 7	.	.	8d#/	.	4a/	.	4A\)	.	.	4aa\)	.
8BB/J	.	.	.	8d#/J	.	.	.	.	.	.	.	.
=44	=44	=44	=44	=44	=44	=44	=44	=44	=44	=44	=44	=44
!LO:TX:b:t=P:problem:mixed beam	!	!	!	!LO:TX:b:i:t=poco	!	!	!	!	!	!	!	!
8E\L	.	2ryy	.	8e/L	.	4g#/	.	4G#\	-nit	.	4gg#\	.
8EE/	.	.	.	16g#/L	.	.	.	.	.	.	.	.
.	.	.	.	16e/JJ	.	.	.	.	.	.	.	.
8E\J	.	.	.	16g#/LL	.	16r	.	8r	.	.	8r	.
!	!	!	!	!	!	!LO:TX:a:t=P:problem:mixed beam	!	!	!	!	!	!
.	.	.	.	16e/	.	16e/LL	.	.	.	.	.	.
8r	.	.	.	16g#/	.	16ee\	.	8E\	qui	.	8gg#\	p
.	.	.	.	16e/JJ	.	16ddn\JJ	.	.	.	.	.	.
=45	=45	=45	=45	=45	=45	=45	=45	=45	=45	=45	=45	=45
!	!	!	!	!	!	!LO:SIC:s=16ddn:v	!	!	!	!	!	!
*tremolo	*	*	*	*	*	*	*	*	*	*	*	*
8E\L	6 4	2ryy	.	(16a/LL	.	16dd#\LL	.	8A\	ve-	.	2aa\	.
.	.	.	.	16e/)	.	16cc#\J	.	.	.	.	.	.
8E\	.	.	.	(16a/	.	8cc#\J	.	4c#\	.	.	.	.
.	.	.	.	16e/JJ)	.	.	.	.	.	.	.	.
8E\	.	.	.	(16a/LL	.	16r	.	.	.	.	.	.
.	.	.	.	16e/)	.	16cc#\LL	.	.	.	.	.	.
8E\J	.	.	.	(16a/	.	16dd#X\	.	16B\LL	.	.	.	.
.	.	.	.	16e/JJ)	.	16ee\JJ	.	16A\JJ	.	.	.	.
=46	=46	=46	=46	=46	=46	=46	=46	=46	=46	=46	=46	=46
8E\L	5 3	2ryy	.	(16g#/LL	.	8b/L	.	8e\	.	.	2gg#\	.
.	.	.	.	16e/)	.	.	.	.	.	.	.	.
8E\	.	.	.	(16g#/	.	8e/J	.	8E\	-nit	.	.	.
.	.	.	.	16e/JJ)	.	.	.	.	.	.	.	.
*	*	*	*	*rep	*	*	*	*	*	*	*	*
8E\	.	.	.	(16g#/LL	.	16r	.	8r	.	.	.	.
!	!	!	!	!	!	!LO:TX:a:t=P:problem:mixed beam	!	!	!	!	!	!
.	.	.	.	16e/)	.	16e/LL	.	.	.	.	.	.
8E\J	.	.	.	(16g#/	.	16ee\	.	8E\	qui	.	.	.
.	.	.	.	16e/JJ)	.	16ddn\JJ	.	.	.	.	.	.
*	*	*	*	*Xrep	*	*	*	*	*	*	*	*
=47	=47	=47	=47	=47	=47	=47	=47	=47	=47	=47	=47	=47
!	!	!	!	!	!	!LO:SIC:s=16ddn:v	!	!	!	!	!	!
8E\L	6 4	2ryy	.	(16a/LL	.	16dd#\LL	.	8A\	ve-	.	2aa\	.
.	.	.	.	16e/)	.	16cc#\J	.	.	.	.	.	.
8E\	.	.	.	16a/	.	8cc#\J	.	4c#\	.	.	.	.
.	.	.	.	16e/JJ	.	.	.	.	.	.	.	.
*	*	*	*	*rep	*	*	*	*	*	*	*	*
8E\	.	.	.	(16a/LL	.	16r	.	.	.	.	.	.
.	.	.	.	16e/)	.	16cc#\LL	.	.	.	.	.	.
8E\J	.	.	.	16a/	.	16dd#X\	.	16B\LL	.	.	.	.
.	.	.	.	16e/JJ	.	16ee\JJ	.	16A\JJ	.	.	.	.
*	*	*	*	*Xrep	*	*	*	*	*	*	*	*
=48	=48	=48	=48	=48	=48	=48	=48	=48	=48	=48	=48	=48
!LO:LB:g=original	!	!LO:LB:g=original	!	!	!	!	!	!	!	!	!	!
4E\	5 3	2ryy	.	16g#/LL	.	8b/L	.	8e\	.	.	4gg#\	.
.	.	.	.	16e/	.	.	.	.	.	.	.	.
.	.	.	.	16g#/	.	8e/J	.	8G#\	-nit	.	.	.
.	.	.	.	16e/JJ	.	.	.	.	.	.	.	.
16r	.	.	.	8g#/L	.	4bb\	.	4B\	in	.	4r	.
16E\LL	.	.	.	.	.	.	.	.	.	.	.	.
16F#\	.	.	.	8b/J	.	.	.	.	.	.	.	.
16G#\JJ	.	.	.	.	.	.	.	.	.	.	.	.
=49	=49	=49	=49	=49	=49	=49	=49	=49	=49	=49	=49	=49
!	!	!	!	!	!	!LO:LB:g=original	!	!	!	!	!	!
!LO:TX:a:t=P:problem:to chyba jest przednutka	!	!	!	!	!	!	!	!	!	!	!	!
8qqB\	.	.	.	.	.	.	.	.	.	.	.	.
!	!	!	!	!	!	!	!	!	!	!	!LO:TX:a:t=7	!
!	!	!	!	!	!	!	!	!	!	!	!LO:N:vis=00	!
4A\	x 5	2ryy	.	4cc#\	.	8bb\L	.	8B\	no-	.	0r	.
.	.	.	.	.	.	16aa\L	.	16A\	-mi-	.	.	.
.	.	.	.	.	.	16gg#\JJ	.	16G#\	-ne	.	.	.
8r	.	.	.	8r	.	8ff#\L	.	8F#\	Do-	.	.	.
8A#X\	6 5	.	.	8cc#\	.	8ee\J	.	8E\	-mi-	.	.	.
=50	=50	=50	=50	=50	=50	=50	=50	=50	=50	=50	=50	=50
!LO:TX:b:t=P:problem:mixed beam	!	!	!	!	!	!	!	!	!	!	!	!
8B\L	.	2ryy	.	4f#/	.	4dd#\	.	4D#\	-ni	.	.	.
8BB/	.	.	.	.	.	.	.	.	.	.	.	.
8BB/	.	.	.	8r	.	8r	.	8r	.	.	.	.
!	!	!	!	!	!LO:DY:b	!	!	!	!	!	!	!
8BB/J	.	.	.	8d#/	p	8b\	.	8B\	qui	.	.	.
=51	=51	=51	=51	=51	=51	=51	=51	=51	=51	=51	=51	=51
!	!	!	!	!	!	!	!	!LO:LB:g=original	!	!	!	!
!	!	!	!	!LO:TX:a:t=P:problem:repetycja na początku i na końcu taktu	!	!	!LO:DY:b:rj	!	!	!	!	!
8BB/L	7 2	2ryy	.	8c#/L	.	8a#X\L	p	16A#X\LL	ve-	.	.	.
.	.	.	.	.	.	.	.	16B\	.	.	.	.
8BB/	.	.	.	8c#/	.	8a#\	.	16c#\	.	.	.	.
.	.	.	.	.	.	.	.	16A#\JJ	.	.	.	.
8BB/	8 3	.	.	8d#/	.	8b\	.	8B\	-nit	.	.	.
8BB/J	.	.	.	8d#/J	.	8b\J	.	8B\	qui	.	.	.
=52	=52	=52	=52	=52	=52	=52	=52	=52	=52	=52	=52	=52
!	!	!	!	!LO:TX:a:t=P:problem:takt zapisany repetycją	!	!	!	!	!	!	!	!
8BB/L	4 2	2ryy	.	8c#/Lyy	.	8a\L	.	16A\LL	ve-	.	.	.
.	.	.	.	.	.	.	.	16B\	.	.	.	.
8BB/	.	.	.	8c#/yy	.	8a\	.	16c#\	.	.	.	.
.	.	.	.	.	.	.	.	16A\JJ	.	.	.	.
8BB/	8 3	.	.	8d#/yy	.	8b\	.	8B\	-nit	.	.	.
8BB/J	.	.	.	8d#/Jyy	.	8b\J	.	8B\	qui	.	.	.
*Xtremolo	*	*	*	*	*	*	*	*	*	*	*	*
=53	=53	=53	=53	=53	=53	=53	=53	=53	=53	=53	=53	=53
*	*	*	*	*tremolo	*	*tremolo	*	*	*	*	*	*
!	!	!	!	!	!	!	!	!	!	!	!LO:N:vis=0	!
8G#\L	x 6	2ryy	.	16e/LL	.	16b\LL	.	4E\	ve-	.	1r	.
.	.	.	.	16e/	.	16b\	.	.	.	.	.	.
8G#\	.	.	.	16e/	.	16b\	.	.	.	.	.	.
.	.	.	.	16e/JJ	.	16b\	.	.	.	.	.	.
8F#\	6_ 4_	.	.	16d#/LL	.	16b\	.	8D#\	-nit	.	.	.
.	.	.	.	16d#/	.	16b\	.	.	.	.	.	.
8F#\J	.	.	.	16d#/	.	16b\	.	8D#\	qui	.	.	.
.	x x	.	.	16d#/JJ	.	16b\JJ	.	.	.	.	.	.
=54	=54	=54	=54	=54	=54	=54	=54	=54	=54	=54	=54	=54
8E\L	x 5_	2ryy	.	16g#/LL	.	16b\LL	.	4G#\	ve-	.	.	.
.	.	.	.	16g#/	.	16b\	.	.	.	.	.	.
8E\	x x	.	.	16g#/	.	16b\	.	.	.	.	.	.
.	.	.	.	16g#/JJ	.	16b\	.	.	.	.	.	.
8D#\	x 6_	.	.	16f#/LL	.	16b\	.	8F#\	-nit	.	.	.
.	.	.	.	16f#/	.	16b\	.	.	.	.	.	.
8D#\J	x x	.	.	16f#/	.	16b\	.	8F#\	in	.	.	.
.	.	.	.	16f#/JJ	.	16b\JJ	.	.	.	.	.	.
*	*	*	*	*Xtremolo	*	*Xtremolo	*	*	*	*	*	*
=55	=55	=55	=55	=55	=55	=55	=55	=55	=55	=55	=55	=55
!LO:TX:b:t=P:problem:mixed beam	!	!	!	!	!	!	!	!	!	!	!	!
8E\L	x 6	2ryy	.	8g#/L	.	16cc#\LL	.	8G#\	no-	.	2r	.
.	.	.	.	.	.	16ee\	.	.	.	.	.	.
8E\	.	.	.	16f#/L	.	16dd#\	.	16c#\	-mi-	.	.	.
.	.	.	.	16e/JJ	.	16cc#\JJ	.	16c#\	-ne	.	.	.
8F#\	x #4r	.	.	8d#/L	.	8b\L	.	8B\	Do-	.	.	.
8FF#/J	.	.	.	8c#/J	.	8a#X\J	.	8A#X\	-mi-	.	.	.
=56	=56	=56	=56	=56	=56	=56	=56	=56	=56	=56	=56	=56
!	!	!	!	!LO:LB:g=original	!	!	!	!	!	!	!	!
*tremolo	*	*	*	*	*	*	*	*2\right	*	*	*	*
!	!	!	!	!LO:TX:b:t=P:problem:mixed beam	!	!	!	!	!	!	!	!
8BB/L	x 3	2ryy	.	8.d#/L	.	8.b\L	.	2B\	.	.	4ff#\	p
8BB/	.	.	.	.	.	.	.	.	.	.	.	.
.	.	.	.	16dd#\Jk	.	16ff#\Jk	.	.	.	.	.	.
8BB/	4 2	.	.	8cc#`\L	.	8ee`\L	.	.	.	.	4ee\	.
8BB/J	.	.	.	(16cc#\L	.	(16ee\L	.	.	.	.	.	.
.	.	.	.	16dd#\JJ)	.	16ff#\JJ)	.	.	.	.	.	.
=57	=57	=57	=57	=57	=57	=57	=57	=57	=57	=57	=57	=57
8BB/L	x 3	2ryy	.	8.b\L	.	8.dd#\L	.	2B\	-ni	.	4ff#\	.
8BB/	.	.	.	.	.	.	.	.	.	.	.	.
.	.	.	.	16dd#\Jk	.	16ff#\Jk	.	.	.	.	.	.
8BB/	4 2	.	.	8cc#`\L	.	8ee`\L	.	.	.	.	4ee\	.
8BB/J	.	.	.	(16cc#\L	.	(16ee\L	.	.	.	.	.	.
.	.	.	.	16dd#\JJ)	.	16ff#\JJ)	.	.	.	.	.	.
*Xtremolo	*	*	*	*	*	*	*	*	*	*	*	*
=58	=58	=58	=58	=58	=58	=58	=58	=58	=58	=58	=58	=58
!	!	!	!	!	!	!	!	!	!	!	!LO:LB:g=original	!
*	*	*	*	*	*	*	*	*	*	*	*tuplet	*
!	!	!LO:TX:b:i:t=poco	!	!	!	!	!	!LO:TX:a:t=10	!	!	!LO:TX:b:i:t=poco	!
!	!	!	!	!	!	!	!	!LO:N:vis=00	!	!	!LO:TUP:a	!
4BB/	.	24ff#\LL	.	4b\	.	4dd#\	.	0r	.	.	(24ff#\LL	.
.	.	24gg#\	.	.	.	.	.	.	.	.	24gg#\	.
.	.	24aa#X\JJ	.	.	.	.	.	.	.	.	24aa#\JJ)	.
*	*	*	*	*	*	*	*	*	*	*	*Xtuplet	*
.	.	(24bb\LL	.	.	.	.	.	.	.	.	24bb\LL	.
.	.	24aa#\	.	.	.	.	.	.	.	.	24aa#\	.
.	.	24gg#\JJ)	.	.	.	.	.	.	.	.	24gg#\JJ	.
4r	.	(24ff#\LL	.	4r	.	4r	.	.	.	.	24ff#\LL	.
.	.	24ee\	.	.	.	.	.	.	.	.	24ee\	.
.	.	24dd#\JJ)	.	.	.	.	.	.	.	.	24dd#\JJ	.
.	.	24cc#\LL	.	.	.	.	.	.	.	.	24cc#\LL	.
.	.	24b\	.	.	.	.	.	.	.	.	24b\	.
.	.	24a#X\JJ	.	.	.	.	.	.	.	.	24a#\JJ	.
=59	=59	=59	=59	=59	=59	=59	=59	=59	=59	=59	=59	=59
!LO:LB:g=original	!	!LO:LB:g=original	!	!	!	!	!	!	!	!	!	!
8E\L	.	4b\	.	4r	.	4r	.	.	.	.	4g#/	.
8E\	.	.	.	.	.	.	.	.	.	.	.	.
8D#\	x 6\	4r	.	4f#/	.	4b#X\	.	.	.	.	4r	.
8D#\J	.	.	.	.	.	.	.	.	.	.	.	.
=60	=60	=60	=60	=60	=60	=60	=60	=60	=60	=60	=60	=60
!LO:TX:b:t=P:problem:mixed beam	!	!	!	!	!LO:DY:b:t=for	!	!LO:DY:b:t=for	!	!	!	!	!
8C#\L	.	2ryy	.	8g#/L	f	(24cc#\LL	f	.	.	.	2r	.
.	.	.	.	.	.	24ee\	.	.	.	.	.	.
.	.	.	.	.	.	24dd#\JJ)	.	.	.	.	.	.
!	!	!	!	!LO:TUP:b	!	!	!	!	!	!	!	!
8E\	x 6	.	.	(24g#/L	.	(24ee\LL	.	.	.	.	.	.
.	.	.	.	24f#/	.	24dd#\	.	.	.	.	.	.
.	.	.	.	24e/JJ)	.	24cc#\JJ)	.	.	.	.	.	.
8F#\	x #4r	.	.	8d#/L	.	8b\L	.	.	.	.	.	.
8FF#/J	.	.	.	8c#/J	.	8a#X\J	.	.	.	.	.	.
=61	=61	=61	=61	=61	=61	=61	=61	=61	=61	=61	=61	=61
*	*	*Xtuplet	*	*	*	*	*	*	*	*	*tuplet	*
!	!	!	!	!	!	!	!	!	!	!	!LO:TUP:a	!
4BB/	.	24ff#\LL	.	4d#/	.	4b\	.	.	.	.	(24ff#\LL	.
.	.	24gg#\	.	.	.	.	.	.	.	.	24gg#\	.
!	!	!	!	!	!	!	!	!	!	!	!LO:SIC:s=16bbn:v	!
.	.	24aa#X\JJ	.	.	.	.	.	.	.	.	24aa\JJ)	.
!	!	!	!	!	!	!	!	!	!	!	!LO:TUP:a	!
.	.	24bb\LL	.	.	.	.	.	.	.	.	24bb\LL	.
!	!	!	!	!	!	!	!	!	!	!	!LO:SIC:s=16bbn:v	!
.	.	24aa#\	.	.	.	.	.	.	.	.	24aa\	.
.	.	24gg#\JJ	.	.	.	.	.	.	.	.	24gg#\JJ	.
!	!	!	!	!	!	!	!	!	!	!	!LO:TUP:a	!
4r	.	24ff#\LL	.	4r	.	4r	.	.	.	.	24ff#\LL	.
.	.	24ee\	.	.	.	.	.	.	.	.	24ee\	.
.	.	24dd#\JJ	.	.	.	.	.	.	.	.	24dd#\JJ	.
!	!	!	!	!	!	!	!	!	!	!	!LO:TUP:a	!
.	.	24cc#\LL	.	.	.	.	.	.	.	.	24cc#\LL	.
.	.	24b\	.	.	.	.	.	.	.	.	24b\	.
.	.	24a#X\JJ	.	.	.	.	.	.	.	.	24a#\JJ	.
=62	=62	=62	=62	=62	=62	=62	=62	=62	=62	=62	=62	=62
*tremolo	*	*	*	*	*	*	*	*	*	*	*	*
!	!	!	!	!	!	!	!	!LO:N:vis=00	!	!	!	!
8E\L	.	2ryy	.	4r	.	4r	.	0r	.	.	4g#/	.
8E\	.	.	.	.	.	.	.	.	.	.	.	.
8E\	.	.	.	4b\	.	4gg#\	.	.	.	.	4r	.
8E\J	.	.	.	.	.	.	.	.	.	.	.	.
=63	=63	=63	=63	=63	=63	=63	=63	=63	=63	=63	=63	=63
*	*	*	*	*	*	*Xtuplet	*	*	*	*	*	*
!LO:TX:b:t=P:problem:mixed beam	!	!	!	!	!LO:DY:b:rj:t=fo	!	!LO:DY:b:t=for	!	!	!	!	!
8D#\L	x 6	2ryy	.	8b\	f	24ff#\LL	f	.	.	.	2r	.
.	.	.	.	.	.	24bb\	.	.	.	.	.	.
.	.	.	.	.	.	24aa#X\JJ	.	.	.	.	.	.
8E\	.	.	.	4b\	.	24gg#\LL	.	.	.	.	.	.
.	.	.	.	.	.	24ff#\	.	.	.	.	.	.
.	.	.	.	.	.	24ee\JJ	.	.	.	.	.	.
8F#\	x #4r	.	.	.	.	8dd#\L	.	.	.	.	.	.
8FF#/J	.	.	.	8a#X\	.	8cc#\J	.	.	.	.	.	.
=64	=64	=64	=64	=64	=64	=64	=64	=64	=64	=64	=64	=64
!	!	!	!	!	!	!LO:LB:g=original	!	!	!	!	!	!
!	!	!	!	!	!LO:DY:b:t=p&colon;	!	!LO:DY:b:t=p&colon;	!	!	!	!	!
8BB/L	.	8r	.	8b/L	p	8b/L	p	.	.	.	8r	.
!	!	!LO:TX:b:i:t=Dolce	!	!	!	!	!	!	!	!	!LO:TX:b:i:t=Do	!
8BB/	.	16ee#X\LL	.	8d#/	.	8f#/ 8b	.	.	.	.	(16ee#X\LL	.
.	.	16ff#\JJ	.	.	.	.	.	.	.	.	16ff#\JJ)	.
8BB/	.	16cc##X\LL	.	8d#/	.	8f#/ 8b	.	.	.	.	(16cc##X\LL	.
.	.	16dd#\	.	.	.	.	.	.	.	.	16dd#\JJ)	.
8BB/J	.	16a#X\	.	8d#/J	.	8f#/J 8b	.	.	.	.	(16a#\LL	.
.	.	16b\JJ	.	.	.	.	.	.	.	.	16b\JJ)	.
=65	=65	=65	=65	=65	=65	=65	=65	=65	=65	=65	=65	=65
*	*	*	*	*tremolo	*	*tremolo	*	*	*	*	*	*
!	!	!	!	!LO:TX:b:t=P:problem:cztery kropki pod nutą	!	!	!	!	!	!	!	!
8BB/L	.	16e#X\LL	.	8d#'/L	.	8f#/L 8b	.	.	.	.	16e#X/LL	.
.	.	16f#\	.	.	.	.	.	.	.	.	16f#/JJ	.
!	!	!	!	!	!	!	!	!	!	!	!LO:SIC:s=16ff#:v	!
8BB/	.	16ee#y\	.	8d#'/	.	8f#/ 8b	.	.	.	.	16ee\LL	.
.	.	16ff#\JJ	.	.	.	.	.	.	.	.	16ff#\JJ	.
8BB/	.	16cc##X\LL	.	8d#'/	.	8f#/ 8b	.	.	.	.	16cc##X\LL	.
.	.	16dd#\	.	.	.	.	.	.	.	.	16dd#\JJ	.
8BB/J	.	16a#X\	.	8d#'/J	.	8f#/J 8b	.	.	.	.	16a#\LL	.
.	.	16b\JJ	.	.	.	.	.	.	.	.	16b\JJ	.
=66	=66	=66	=66	=66	=66	=66	=66	=66	=66	=66	=66	=66
!	!	!	!	!	!	!	!	!LO:N:vis=0	!	!	!LO:SIC:s=16f#:v	!
8BB/L	.	16e#X\LL	.	8d#'/L	.	8f#/L 8b	.	1r	.	.	16e/LL	.
.	.	16f#\	.	.	.	.	.	.	.	.	16f#/	.
!	!	!	!	!	!	!	!	!	!	!	!LO:SIC:s=16bn:v	!
8BB/	.	16a#X\	.	8d#'/	.	8f#/ 8b	.	.	.	.	16a/	.
.	.	16b\JJ	.	.	.	.	.	.	.	.	16b/JJ	.
8BB/	.	16cc##X\LL	.	8d#'/	.	8f#/ 8b	.	.	.	.	16cc##X\LL	.
.	.	16dd#\	.	.	.	.	.	.	.	.	16dd#\	.
!	!	!	!	!	!	!	!	!	!	!	!LO:SIC:s=16ff#:v	!
8BB/J	.	16ee#X\	.	8d#'/J	.	8f#/J 8b	.	.	.	.	16ee\	.
.	.	16ff#\JJ	.	.	.	.	.	.	.	.	16ff#\JJ	.
*Xtremolo	*	*	*	*	*	*Xtremolo	*	*	*	*	*	*
=67	=67	=67	=67	=67	=67	=67	=67	=67	=67	=67	=67	=67
!LO:LB:g=original	!	!LO:LB:g=original	!	!	!	!	!	!	!	!	!LO:LB:g=original	!
4BB/	.	4b\	.	4d#/	.	4f#/ 4b	.	.	.	.	4b\	.
4r	.	4r	.	4r	.	4r	.	.	.	.	4r	.
=68	=68	=68	=68	=68	=68	=68	=68	=68	=68	=68	=68	=68
!	!	!	!LO:DY:b=2:t=p&colon;	!	!	!	!	!	!	!	!LO:TX:a:t=7	!
4B\	.	2ryy	p	2f#/	.	8.b\L	.	8.B\L	Be-	.	2r	.
!	!	!	!	!	!	!	!	!LO:TX:b:i:t=Dolce	!	!	!	!
.	.	.	.	.	.	16cc#\Jk	.	16c#\Jk	.	.	.	.
.	.	.	.	.	.	8qqee/	.	.	.	.	.	.
4A\	4 2	.	.	.	.	8dd#\L	.	8d#\	.	.	.	.
.	.	.	.	.	.	16cc#\L	.	16c#\LL	-ne-	.	.	.
.	.	.	.	.	.	16b\JJ	.	16B\JJ	.	.	.	.
=69	=69	=69	=69	=69	=69	=69	=69	=69	=69	=69	=69	=69
!	!	!	!	!	!	!LO:TX:a:t=P:problem:mixed beam	!	!	!	!	!	!
4G#\	x 6	2ryy	.	4e/	.	8ee\L	.	8e\	-di-	.	2r	.
.	.	.	.	.	.	8e/J	.	8E\	-ctus	.	.	.
4r	.	.	.	4r	.	4r	.	4r	.	.	.	.
=70	=70	=70	=70	=70	=70	=70	=70	=70	=70	=70	=70	=70
!	!	!	!	!	!	!	!	!LO:LB:g=original	!	!	!	!
!	!	!	!	!LO:TX:a:t=P:problem:trzy kropki nad nutą w pionie	!	!	!	!	!	!	!	!
4G#\	x #	2ryy	.	2d#/	.	8.g#/L	.	8.G#\L	Be-	.	2r	.
.	.	.	.	.	.	16a#X/Jk	.	16A#X\Jk	.	.	.	.
.	.	.	.	.	.	4qqcc#/	.	.	.	.	.	.
4F#\	n4r 2	.	.	.	.	8b#X/L	.	8B#X\	.	.	.	.
.	.	.	.	.	.	16a#/L	.	16A#\LL	-ne-	.	.	.
.	.	.	.	.	.	16g#/JJ	.	16G#\JJ	.	.	.	.
=71	=71	=71	=71	=71	=71	=71	=71	=71	=71	=71	=71	=71
!	!	!	!	!	!	!LO:TX:a:t=P:problem:mixed beam	!	!	!	!	!	!
4E\	x 6	2ryy	.	4c#/	.	8cc#\L	.	8c#\	-di-	.	2r	.
.	.	.	.	.	.	8c#/J	.	8C#/	-ctus	.	.	.
4r	.	.	.	4r	.	8r	.	8r	.	.	.	.
.	.	.	.	.	.	8cc#\	.	8c#\	qui	.	.	.
=72	=72	=72	=72	=72	=72	=72	=72	=72	=72	=72	=72	=72
8F#\L	n4r 2	2ryy	.	8g#/L	.	8b#X\L	.	16B#X\LL	ve-	.	2r	.
.	.	.	.	.	.	.	.	16c#\	.	.	.	.
8F#\	.	.	.	8g#/	.	8b#\	.	16G#\	.	.	.	.
.	.	.	.	.	.	.	.	16B#\JJ	.	.	.	.
8E\	x 6	.	.	8g#/	.	8cc#\	.	8c#\	-nit	.	.	.
8E\J	.	.	.	8g#/J	.	8cc#\J	.	8c#\	qui	.	.	.
=73	=73	=73	=73	=73	=73	=73	=73	=73	=73	=73	=73	=73
8F#\L	n4r 2	2ryy	.	8g#/L	.	8b\L	.	16B\LL	ve-	.	2r	.
.	.	.	.	.	.	.	.	16d#\	.	.	.	.
8F#\	.	.	.	8g#/	.	8b\	.	16G#\	.	.	.	.
.	.	.	.	.	.	.	.	16B\JJ	.	.	.	.
8E\	x 6	.	.	8g#/	.	8cc#\	.	8c#\	-nit	.	.	.
8E\J	.	.	.	8g#/J	.	8cc#\J	.	8c#\	in	.	.	.
*	*	*	*	*Xtremolo	*	*	*	*	*	*	*	*
=74	=74	=74	=74	=74	=74	=74	=74	=74	=74	=74	=74	=74
!	!	!	!	!LO:LB:g=original	!	!	!	!	!	!	!	!
4F#\	x n6r	2ryy	.	4a/	.	8ddn\L	.	8dn\	no-	.	2r	.
.	.	.	.	.	.	8dd\J	.	16d\	-mi-	.	.	.
.	.	.	.	.	.	.	.	16d\	-ne	.	.	.
4G#\	.	.	.	4b/	.	4dd\	.	8e\	Do-	.	.	.
.	.	.	.	.	.	.	.	8d\	-mi-	.	.	.
=75	=75	=75	=75	=75	=75	=75	=75	=75	=75	=75	=75	=75
!	!	!	!	!	!	!	!	!	!	!	!LO:TX:b:i:t=Dolce	!
*tremolo	*	*	*	*	*	*	*	*	*	*	*	*
8A\L	.	2ryy	.	8e/L	.	4cc#\	.	4c#\	-ni	.	8ee\L	.
8A\	.	.	.	16a/L	.	.	.	.	.	.	16a\L	.
.	.	.	.	16b/JJ	.	.	.	.	.	.	16b\JJ	.
8A\	.	.	.	8cc#/L	.	4r	.	4r	.	.	8cc#\L	.
8A\J	.	.	.	16b/L	.	.	.	.	.	.	16b\L	.
.	.	.	.	16a/JJ	.	.	.	.	.	.	16a\JJ	.
=76	=76	=76	=76	=76	=76	=76	=76	=76	=76	=76	=76	=76
!	!	!	!	!LO:TX:b:t=P:problem:mixed beam	!	!	!	!	!	!	!LO:TX:b:t=P:problem:mixed beam	!
8G#\L	x 6	2ryy	.	8ee\L	.	8r	.	4r	.	.	8ee^>\L	.
8G#\	.	.	.	8e/J	.	16ee\LL	.	.	.	.	8e/J	.
.	.	.	.	.	.	16ff#\JJ	.	.	.	.	.	.
8G#\	.	.	.	8r	.	8gg#\L	.	8r	.	.	8r	.
!	!	!	!	!	!	!	!	!	!	!	!LO:N:vis=4	!
8G#\J	.	.	.	8ee\	.	16ff#\L	.	16r	.	.	8ee\	.
.	.	.	.	.	.	16ee\JJ	.	16E\	qui	.	.	.
*Xtremolo	*	*	*	*	*	*	*	*	*	*	*	*
=77	=77	=77	=77	=77	=77	=77	=77	=77	=77	=77	=77	=77
!LO:TX:b:t=P:problem:mixed beam	!	!	!	!	!	!	!	!	!	!	!	!
8F#\L	.	2ryy	.	8ee\L	.	8.bb\L	.	(8.B\L	ve-	.	4ee\	.
8F#\	.	.	.	8ee\	.	.	.	.	.	.	.	.
.	.	.	.	.	.	16gg#\Jk	.	16G#\Jk)	.	.	.	.
.	.	.	.	.	.	.	.	8qqB/	.	.	.	.
8BB/	.	.	.	8dd#\	.	4aa\	.	4A\	-n-	.	4dd#\	.
8BB/J	.	.	.	8dd#\J	.	.	.	.	.	.	.	.
=78	=78	=78	=78	=78	=78	=78	=78	=78	=78	=78	=78	=78
!	!	!	!	!LO:TX:b:t=P:problem:mixed beam	!	!	!	!	!	!	!	!
4E\	.	2ryy	.	8ee\L	.	4gg#\	.	4G#\	-nit	.	8ee\L	.
.	.	.	.	16e/L	.	.	.	.	.	.	16ee\L	.
.	.	.	.	16f#/JJ	.	.	.	.	.	.	16ff#\JJ	.
.	.	.	.	.	.	.	.	.	.	.	8qqaa/	.
4r	.	.	.	8g#/L	.	8r	.	8r	.	.	8gg#\L	.
.	.	.	.	16f#/L	.	16r	.	16r	.	.	16ff#\L	.
*	*	*	*	*	*	*	*	*	*ij	*	*	*
.	.	.	.	16e/JJ	.	16e/	.	16E\	qui	.	16ee\JJ	.
=79	=79	=79	=79	=79	=79	=79	=79	=79	=79	=79	=79	=79
!	!	!	!	!	!	!	!	!LO:LB:g=original	!	!	!	!
!LO:TX:b:t=P:problem:mixed beam	!	!	!	!	!	!	!	!	!	!	!	!
8F#\L	.	2ryy	.	8e/L	.	8.b/L	.	8.B\L	ve-	.	8.bb\L	.
8F#\	.	.	.	8e/	.	.	.	.	.	.	.	.
.	.	.	.	.	.	16g#/Jk	.	(16G#\Jk	.	.	16gg#\Jk	.
.	.	.	.	.	.	8qqb/	.	.	.	.	.	.
8BB/	.	.	.	8d#/	.	4a/	.	4A\)	.	.	8bb\L	.
8BB/J	.	.	.	8d#/J	.	.	.	.	.	.	8aa\J	.
=80	=80	=80	=80	=80	=80	=80	=80	=80	=80	=80	=80	=80
!LO:TX:b:t=P:problem:mixed beam	!	!	!	!	!	!	!	!	!	!	!	!
8E\L	.	2ryy	.	4e/	.	4g#/	.	4G#\	-nit	.	4gg#\	.
*	*	*	*	*	*	*	*	*	*Xij	*	*	*
8EE/	.	.	.	.	.	.	.	.	.	.	.	.
8E\J	.	.	.	4r	.	4r	.	4r	.	.	4r	.
8r	.	.	.	.	.	.	.	.	.	.	.	.
=81	=81	=81	=81	=81	=81	=81	=81	=81	=81	=81	=81	=81
!LO:LB:g=original	!	!LO:LB:g=original	!	!	!	!	!LO:LB:g=original	!	!	!	!	!
*	*	*	*^	*	*	*	*	*	*	*	*	*
!	!	!LO:TX:a:t=P:problem:2 takty wymazane - nieczytelne	!LO:DY:b:t=for	!LO:DY:b=2:t=for	!LO:TX:a:t=P:problem:w t.81-83 kropki artykulacyjne, ale nie da się ich przypasować do nut	!LO:DY:b:t=for	!LO:TX:a:t=P:problem:w t.81-84 kropki artykulacyjne, ale nie da się ich przypasować do nut	!LO:DY:b:t=for	!	!	!LO:DY:b:rj:t=for	!LO:TX:a:t=6	!
!	!	!	!	!	!	!	!	!	!	!	!	!LO:N:vis=00	!
8.E`\L	.	2ryy	f	f	8.e/L	f	8.e/L	f	8.E\L	Be-	f	0r	.
16F#`\Jk	.	.	.	.	16f#/Jk	.	16f#/Jk	.	16F#\Jk	.	.	.	.
16Gn`\LL	.	.	.	.	16gn/LL	.	16gn/LL	.	16Gn\LL	.	.	.	.
16A`\	.	.	.	.	16a/	.	16a/	.	16A\JJ	.	.	.	.
16B`\	.	.	.	.	16b/	.	16b/	.	16B\LL	-ne-	.	.	.
16A`\JJ	.	.	.	.	16a/JJ	.	16a/JJ	.	16A\JJ	.	.	.	.
*	*	*	*v	*v	*	*	*	*	*	*	*	*	*
=82	=82	=82	=82	=82	=82	=82	=82	=82	=82	=82	=82	=82
!LO:SIC:s=8.Gn:v	!	!	!	!LO:SIC:s=8.gn:v	!	!	!	!	!	!	!	!
8.G#`\L	.	2ryy	.	8.g#/L	.	8.gn/L	.	8.Gn\L	-di-	.	.	.
16F#`\Jk	.	.	.	16f#/Jk	.	16f#/Jk	.	16F#\Jk	.	.	.	.
16E`\LL	.	.	.	16e/LL	.	16e/LL	.	8E\	-ctus	.	.	.
16cn`\	.	.	.	16ccn/	.	16ccn/	.	.	.	.	.	.
16B`\	.	.	.	16b/	.	16b/	.	8r	.	.	.	.
16A#X`\JJ	.	.	.	16a#X/JJ	.	16a#X/JJ	.	.	.	.	.	.
=83	=83	=83	=83	=83	=83	=83	=83	=83	=83	=83	=83	=83
!LO:TX:b:t=P:problem:mixed beam	!	!	!	!LO:TX:a:t=P:problem:mixed beam	!	!	!	!LO:TX:a:t=1	!	!	!	!
8B`\L	.	2ryy	.	8b\L	.	8b/L	.	2r	.	.	.	.
8BB`/J	.	.	.	8B/J	.	8B/J	.	.	.	.	.	.
4r	.	.	.	4r	.	4r	.	.	.	.	.	.
=84	=84	=84	=84	=84	=84	=84	=84	=84	=84	=84	=84	=84
8.E'\L	.	2ryy	.	8.e/L	.	8.e/L	.	8.E\L	Be-	.	.	.
16F#'\Jk	.	.	.	16f#/Jk	.	16f#/Jk	.	16F#\Jk	.	.	.	.
16Gn'\LL	.	.	.	16gn/LL	.	16gn/LL	.	16Gn\LL	.	.	.	.
16A'\	.	.	.	16a/	.	16a/	.	16A\JJ	.	.	.	.
16B'\	.	.	.	16b/	.	16b/	.	16B\LL	-ne-	.	.	.
16A'\JJ	.	.	.	16a/JJ	.	16a/JJ	.	16A\JJ	.	.	.	.
=85	=85	=85	=85	=85	=85	=85	=85	=85	=85	=85	=85	=85
!LO:SIC:s=8.Gn:v	!	!	!	!	!	!	!	!	!	!	!LO:N:vis=0	!
!LO:TX:a:t=P:problem:falująca kreska nad taktem	!	!	!	!LO:SIC:s=8.gn:v	!	!LO:SIC:s=8.gn:v	!	!	!	!	!	!
8.G#\L	.	2ryy	.	8.g#/L	.	8.g#/L	.	8.Gn\L	-di-	.	1r	.
16F#\Jk	.	.	.	16f#/Jk	.	16f#'/Jk	.	16F#\Jk	.	.	.	.
!	!	!	!	!	!	!	!	!LO:TX:a:t=8	!	!	!	!
16E\LL	.	.	.	16e/LL	.	16e'/LL	.	16E\LL	.	.	.	.
16Dn\	.	.	.	16dn/	.	16dn/	.	16Dn\JJ	.	.	.	.
16Cn\	.	.	.	16cn/	.	16cn/	.	16Cn/LL	.	.	.	.
16BB\JJ	.	.	.	16B/JJ	.	16B/JJ	.	16BB/JJ	.	.	.	.
=86	=86	=86	=86	=86	=86	=86	=86	=86	=86	=86	=86	=86
.	.	.	.	.	.	.	.	4qqBB/	.	.	.	.
2AA#X/	.	2ryy	.	2A#X/	.	2A#X/	.	2AA#X/	.	.	.	.
=87	=87	=87	=87	=87	=87	=87	=87	=87	=87	=87	=87	=87
!LO:PB:g=original	!	!LO:PB:g=original	!	!LO:LB:g=original	!	!	!	!	!	!	!	!
!	!	!LO:TX:b:i:t=Dolc poco	!	!	!	!	!	!	!	!	!	!
4BB/	.	16r	.	4B/	.	4B/	.	4BB/	-ctus	.	16r	.
!	!	!	!	!	!	!	!	!	!	!	!LO:TX:b:i:t=Dolce	!
.	.	16b\LL	.	.	.	.	.	.	.	.	16b\LL	.
.	.	16b\	.	.	.	.	.	.	.	.	16b\	.
.	.	16b\JJ	.	.	.	.	.	.	.	.	16b\JJ	.
*	*	*	*	*	*	*	*	*	*	*	*Xtuplet	*
4r	.	16.bT\LL	.	4r	.	4r	.	4r	.	.	24b\LL	.
.	.	.	.	.	.	.	.	.	.	.	24a#\	.
.	.	.	.	.	.	.	.	.	.	.	24b\JJ	.
!	!	!LO:N:vis=32	!	!	!	!	!	!	!	!	!	!
.	.	64a#X\	.	.	.	.	.	.	.	.	.	.
!	!	!LO:N:vis=32	!	!	!	!	!	!	!	!	!	!
.	.	64b\JJk	.	.	.	.	.	.	.	.	.	.
.	.	16cc#\LL	.	.	.	.	.	.	.	.	(16cc#\LL	.
.	.	16a#\JJ	.	.	.	.	.	.	.	.	16a#\JJ)	.
=88	=88	=88	=88	=88	=88	=88	=88	=88	=88	=88	=88	=88
!	!	!	!	!LO:TX:a:t=3	!	!	!LO:DY:b	!LO:TX:a:t=3	!	!	!	!
!	!	!	!	!LO:N:vis=0	!	!	!	!LO:N:vis=0	!	!	!	!
4BB/	.	16b\LL	.	1r	.	16r	p	1r	.	.	16a\LL	.
.	.	16dd#\	.	.	.	16b\LL	.	.	.	.	16dd#\	.
.	.	16dd#\	.	.	.	16b\	.	.	.	.	16dd#\	.
.	.	16dd#\JJ	.	.	.	16b\JJ	.	.	.	.	16dd#\JJ	.
4r	.	16.dd#t\LL	.	.	.	16b\LL	.	.	.	.	16dd#t\LL	.
.	.	.	.	.	.	32a#X\L	.	.	.	.	32cc#X\L	.
!	!	!LO:N:vis=32	!	!	!	!	!	!	!	!	!	!
.	.	64cc#\	.	.	.	32b\JJJ	.	.	.	.	32dd#\JJJ	.
!	!	!LO:N:vis=32	!	!	!	!	!	!	!	!	!	!
.	.	64dd#\JJk	.	.	.	.	.	.	.	.	.	.
.	.	16ee\LL	.	.	.	16cc#\LL	.	.	.	.	16ee\LL	.
.	.	16cc#\JJ	.	.	.	16a#\JJ	.	.	.	.	16cc#\JJ	.
=89	=89	=89	=89	=89	=89	=89	=89	=89	=89	=89	=89	=89
8BB/L	.	16dd#\LL	.	.	.	16b\LL	.	.	.	.	16dd#\LL	.
.	.	16ff#\	.	.	.	16dd#\	.	.	.	.	16ff#\	.
8BB/J	.	16ff#\	.	.	.	16dd#\	.	.	.	.	16ff#\	.
.	.	16ff#\JJ	.	.	.	16dd#\JJ	.	.	.	.	16ff#\JJ	.
*	*	*tuplet	*	*	*	*tuplet	*	*	*	*	*	*
!	!	!	!	!	!	!	!	!	!	!	!LO:LB:g=original	!
8r	.	(24ff#\LL	.	.	.	(24dd#\LL	.	.	.	.	24ff#\LL	.
.	.	24gg#\	.	.	.	24ee\	.	.	.	.	24gg#\	.
.	.	24aa\JJ)	.	.	.	24ff#\JJ)	.	.	.	.	24aa\JJ	.
8BB/	.	(24gg#\LL	.	.	.	(24ee\LL	.	.	.	.	24gg#\LL	.
.	.	24aa\	.	.	.	24ff#\	.	.	.	.	24aa\	.
.	.	24bb\JJ)	.	.	.	24gg#\JJ)	.	.	.	.	24bb\JJ	.
=90	=90	=90	=90	=90	=90	=90	=90	=90	=90	=90	=90	=90
8BB/L	.	16aa\LL	.	2r	.	4ff#\	.	2r	.	.	16aa\LL	.
.	.	16ff#\	.	.	.	.	.	.	.	.	16ff#\	.
8BB/J	.	16ff#\	.	.	.	.	.	.	.	.	16ff#\	.
.	.	16ff#\JJ	.	.	.	.	.	.	.	.	16ff#\JJ	.
*	*	*Xtuplet	*	*	*	*	*	*	*	*	*	*
8r	.	24ff#\LL	.	.	.	4r	.	.	.	.	24ff#\LL	.
.	.	24gg#\	.	.	.	.	.	.	.	.	24gg#\	.
.	.	24aa\JJ	.	.	.	.	.	.	.	.	24aa\JJ	.
8BB/	.	24gg#\LL	.	.	.	.	.	.	.	.	24gg#\LL	.
.	.	24aa\	.	.	.	.	.	.	.	.	24aa\	.
.	.	24bb\JJ	.	.	.	.	.	.	.	.	24bb\JJ	.
=91	=91	=91	=91	=91	=91	=91	=91	=91	=91	=91	=91	=91
!	!	!	!	!	!	!	!	!LO:LB:g=original	!	!	!	!
!	!	!	!	!	!	!LO:TX:a:t=3	!	!	!	!	!	!
!	!	!	!	!	!	!LO:N:vis=0	!	!	!	!	!	!
4AA/	.	4aa\	.	8r	.	1r	.	8r	.	.	4aa\	.
!	!	!	!	!LO:TX:b:i:t=poco	!	!	!	!LO:TX:b:i:t=poco	!	!	!	!
.	.	.	.	8b\	.	.	.	8B\	qui	.	.	.
4r	.	4r	.	8b\L	.	.	.	8B\	ve-	.	4r	.
.	.	.	.	16cc#\L	.	.	.	16c#\	-nit	.	.	.
.	.	.	.	16dd#\JJ	.	.	.	16d#\	in	.	.	.
=92	=92	=92	=92	=92	=92	=92	=92	=92	=92	=92	=92	=92
!	!	!	!	!	!	!	!	!	!	!	!LO:TX:a:t=3	!
!	!	!	!	!	!	!	!	!	!	!	!LO:N:vis=0	!
2r	.	2r	.	4ee\	.	.	.	8.e\	no-	.	1r	.
.	.	.	.	.	.	.	.	16e\	-mi-	.	.	.
.	.	.	.	4dd#\	.	.	.	8d#\	-ne	.	.	.
.	.	.	.	.	.	.	.	8d#\	qui	.	.	.
=93	=93	=93	=93	=93	=93	=93	=93	=93	=93	=93	=93	=93
!LO:LB:g=original	!	!LO:LB:g=original	!LO:DY:b=2:t=p.	!	!	!	!	!	!	!	!	!
4e\	x 6	2ryy	p	4cc#\	.	2r	.	4c#\	ve-	.	.	.
4d#\	x 6	.	.	4b\	.	.	.	8B\	-nit	.	.	.
.	.	.	.	.	.	.	.	8B\	in	.	.	.
=94	=94	=94	=94	=94	=94	=94	=94	=94	=94	=94	=94	=94
4c#\	x 6	2ryy	.	4a/	.	4ee\	.	8.A\	no-	.	2r	.
.	.	.	.	.	.	.	.	16A\	-mi-	.	.	.
4B\	6 4	.	.	4g#/	.	4ee\	.	4G#\	-ne	.	.	.
=95	=95	=95	=95	=95	=95	=95	=95	=95	=95	=95	=95	=95
!LO:TX:b:t=P:problem:mixed beam	!	!	!	!	!	!	!	!	!	!	!	!
8A\L	x 5	2ryy	.	8cc#/L	.	8ee`\L	.	8F#\L	Do-	.	4r	.
*	*	*	*	*	*	*	*	*24\right	*	*	*	*
8A\	x 6	.	.	8cc#/	.	(24aa\L	.	(24A\L	.	.	.	.
.	.	.	.	.	.	24gg#\	.	24G#\	.	.	.	.
.	.	.	.	.	.	24ff#\JJ)	.	24F#\JJ)	.	.	.	.
8B\	x 4	.	.	8g#/	.	8ee\L	.	8E\	.	.	8r	.
8BB/J	x 3	.	.	8f#/J	.	8dd#\J	.	8D#\	-mi-	.	8ff#\	p
=96	=96	=96	=96	=96	=96	=96	=96	=96	=96	=96	=96	=96
!	!	!	!	!	!	!LO:LB:g=original	!	!	!	!	!	!
!	!	!	!LO:DY:b=2:t=p&colon;	!LO:TX:a:t=P:problem:repetycja na początku taktu	!	!	!	!	!	!	!	!
*tremolo	*	*	*	*	*	*	*	*	*	*	*	*
8E\L	x 1	2ryy	p	16g#/LL	.	4ee\	.	4E\	-ni	.	2gg#\	.
.	.	.	.	16e/	.	.	.	.	.	.	.	.
8E\	x 8	.	.	16g#/	.	.	.	.	.	.	.	.
.	.	.	.	16e/JJ	.	.	.	.	.	.	.	.
*	*	*	*	*rep	*	*	*	*	*	*	*	*
8E\	x n7	.	.	16g#/LL	.	16r	.	8r	.	.	.	.
!	!	!	!	!	!	!LO:TX:a:t=P:problem:mixed beam	!	!	!	!	!	!
.	.	.	.	16e/	.	16e/LL	.	.	.	.	.	.
8E\J	.	.	.	16g#/	.	16ee\	.	8E\	O-	.	.	.
.	.	.	.	16e/JJ	.	16ddn\JJ	.	.	.	.	.	.
*	*	*	*	*Xrep	*	*	*	*	*	*	*	*
=97	=97	=97	=97	=97	=97	=97	=97	=97	=97	=97	=97	=97
!	!	!	!	!	!	!LO:SIC:s=16ddn:v	!	!	!	!	!	!
8E\L	6 4	2ryy	.	(16a/LL	.	16dd#\LL	.	8A\	-san-	.	2aa\	.
.	.	.	.	16e/)	.	16cc#\J	.	.	.	.	.	.
!	!	!	!	!	!	!	!	!	!LO:DY:b:t=for	!LO:DY:b:t=for	!	!
8E\	.	.	.	(16a/	.	8cc#\J	.	4c#\	.	f	.	.
.	.	.	.	16e/JJ)	.	.	.	.	.	.	.	.
*	*	*	*	*rep	*	*	*	*	*	*	*	*
8E\	.	.	.	(16a/LL	.	16r	.	.	.	.	.	.
.	.	.	.	16e/)	.	16cc#\LL	.	.	.	.	.	.
8E\J	.	.	.	(16a/	.	16dd#X\	.	16B\LL	.	.	.	.
!	!	!	!	!LO:TX:a:t=P:problem:repetycja na końcu taktu	!	!	!	!	!	!	!	!
.	.	.	.	16e/JJ)	.	16ee\JJ	.	16A\JJ	.	.	.	.
*	*	*	*	*Xrep	*	*	*	*	*	*	*	*
=98	=98	=98	=98	=98	=98	=98	=98	=98	=98	=98	=98	=98
!	!	!	!	!LO:TX:a:t=P:problem:takty 98-99 zapisane repetycją	!	!	!	!	!	!	!	!
8E\L	5 3	2ryy	.	16g#/LLyy	.	8b/L	.	8e\	.	.	2gg#\	.
.	.	.	.	16e/yy	.	.	.	.	.	.	.	.
8E\	.	.	.	16g#/yy	.	8e/J	.	8E\	-na	.	.	.
.	.	.	.	16e/JJyy	.	.	.	.	.	.	.	.
*	*	*	*	*rep	*	*	*	*	*	*	*	*
8E\	.	.	.	16g#/LLyy	.	16r	.	8r	.	.	.	.
!	!	!	!	!	!	!LO:TX:a:t=P:problem:mixed beam	!	!	!	!	!	!
.	.	.	.	16e/yy	.	16e/LL	.	.	.	.	.	.
8E\J	.	.	.	16g#/yy	.	16ee\	.	8E\	O-	.	.	.
.	.	.	.	16e/JJyy	.	16ddn\JJ	.	.	.	.	.	.
*	*	*	*	*Xrep	*	*	*	*	*	*	*	*
=99	=99	=99	=99	=99	=99	=99	=99	=99	=99	=99	=99	=99
!	!	!	!	!	!	!	!	!LO:LB:g=original	!	!	!	!
!	!	!	!	!	!	!LO:SIC:s=16ddn:v	!	!	!	!	!	!
8E\L	6 4	2ryy	.	(16a/LLyy	.	16dd#\LL	.	8A\	-san-	.	2aa\	.
.	.	.	.	16e/)yy	.	16cc#\J	.	.	.	.	.	.
8E\	.	.	.	(16a/yy	.	8cc#\J	.	4c#\	.	.	.	.
.	.	.	.	16e/JJ)yy	.	.	.	.	.	.	.	.
*	*	*	*	*rep	*	*	*	*	*	*	*	*
8E\	.	.	.	(16a/LLyy	.	16r	.	.	.	.	.	.
.	.	.	.	16e/)yy	.	16cc#\LL	.	.	.	.	.	.
8E\J	.	.	.	(16a/yy	.	16dd#X\	.	16B\LL	.	.	.	.
.	.	.	.	16e/JJ)yy	.	16ee\JJ	.	16A\JJ	.	.	.	.
*	*	*	*	*Xrep	*	*	*	*	*	*	*	*
=100	=100	=100	=100	=100	=100	=100	=100	=100	=100	=100	=100	=100
4E\	5 3	2ryy	.	16g#/LL	.	8b/L	.	8e\	.	.	4gg#\	.
.	.	.	.	16e/	.	.	.	.	.	.	.	.
.	.	.	.	16g#/	.	8e/J	.	8E\	-na	.	.	.
.	.	.	.	16e/JJ	.	.	.	.	.	.	.	.
16r	.	.	.	4b/	.	4bb\	.	4B\	in	.	4r	.
16E\LL	.	.	.	.	.	.	.	.	.	.	.	.
16F#\	.	.	.	.	.	.	.	.	.	.	.	.
16G#\JJ	.	.	.	.	.	.	.	.	.	.	.	.
=101	=101	=101	=101	=101	=101	=101	=101	=101	=101	=101	=101	=101
!LO:TX:b:t=P:problem:mixed beam	!	!	!	!	!	!	!	!	!	!	!LO:TX:a:t=1	!
8A\L	9 3	2ryy	.	8cc#/L	.	24aa\LL	.	16A\LL	ex-	.	2r	.
.	.	.	.	.	.	24gg#\	.	.	.	.	.	.
.	.	.	.	.	.	.	.	16F#\JJ	.	.	.	.
.	.	.	.	.	.	24ff#\JJ	.	.	.	.	.	.
8A\	8 x	.	.	8cc#/	.	24gg#\LL	.	16G#\LL	-cel-	.	.	.
.	.	.	.	.	.	24ff#\	.	.	.	.	.	.
.	.	.	.	.	.	.	.	16E\JJ	.	.	.	.
.	.	.	.	.	.	24ee\JJ	.	.	.	.	.	.
8B\	x 4	.	.	8g#/	.	8ee\L	.	8E\L	.	.	.	.
8BB/J	x 3	.	.	8f#/J	.	8dd#\J	.	8D#\J	.	.	.	.
=102	=102	=102	=102	=102	=102	=102	=102	=102	=102	=102	=102	=102
!	!	!	!	!LO:TX:b:t=P:problem:mixed beam	!	!	!	!	!	!	!	!
8E\L	3 1	2ryy	.	8.g#/L	.	8.ee\L	.	2E\	.	.	4gg#\	p
8E\	.	.	.	.	.	.	.	.	.	.	.	.
.	.	.	.	16gg#\Jk	.	16bb\Jk	.	.	.	.	.	.
8E\	4 2	.	.	8ff#'\L	.	8aa\L	.	.	.	.	4ff#\	.
8E\J	.	.	.	(16ff#\L	.	16aa\L	.	.	.	.	.	.
.	.	.	.	16gg#\JJ)	.	16bb\JJ	.	.	.	.	.	.
=103	=103	=103	=103	=103	=103	=103	=103	=103	=103	=103	=103	=103
8E\L	3 1	2ryy	.	8.ee\L	.	8.gg#\L	.	2E\	-siſ	.	4gg#\	.
8E\	.	.	.	.	.	.	.	.	.	.	.	.
.	.	.	.	16gg#\Jk	.	16bb\Jk	.	.	.	.	.	.
8E\	4 2	.	.	8ff#\L	.	8aa\L	.	.	.	.	4ff#\	.
8E\J	.	.	.	16ff#\L	.	16aa\L	.	.	.	.	.	.
.	.	.	.	16gg#\JJ	.	16bb\JJ	.	.	.	.	.	.
*Xtremolo	*	*	*	*	*	*	*	*	*	*	*	*
=104	=104	=104	=104	=104	=104	=104	=104	=104	=104	=104	=104	=104
*	*	*	*	*	*	*	*	*	*	*	*tuplet	*
!	!	!LO:TX:b:i:t=poco	!	!	!	!	!	!LO:TX:a:t=10	!	!	!LO:TX:b:i:t=poco	!
!	!	!	!	!	!	!	!	!LO:N:vis=00	!	!	!LO:TUP:a	!
4E\	.	24ee\LL	.	4ee\	.	4gg#\	.	0r	.	.	(24ee\LL	.
.	.	24gg#\	.	.	.	.	.	.	.	.	24gg#\	.
.	.	24ff#\JJ	.	.	.	.	.	.	.	.	24ff#\JJ)	.
*	*	*	*	*	*	*	*	*	*	*	*Xtuplet	*
.	.	24ee\LL	.	.	.	.	.	.	.	.	24ee\LL	.
.	.	24dd#\	.	.	.	.	.	.	.	.	24dd#\	.
.	.	24cc#\JJ	.	.	.	.	.	.	.	.	24cc#\JJ	.
4r	.	24b\LL	.	4r	.	4r	.	.	.	.	24b\LL	.
.	.	24a\	.	.	.	.	.	.	.	.	24a\	.
.	.	24g#\JJ	.	.	.	.	.	.	.	.	24g#\JJ	.
.	.	24f#/LL	.	.	.	.	.	.	.	.	24f#\LL	.
.	.	24e/	.	.	.	.	.	.	.	.	24e\	.
.	.	24d#/JJ	.	.	.	.	.	.	.	.	24d#\JJ	.
=105	=105	=105	=105	=105	=105	=105	=105	=105	=105	=105	=105	=105
!LO:LB:g=original	!	!LO:LB:g=original	!	!	!	!	!	!	!	!	!LO:LB:g=original	!
8A\L	.	4c#/	.	4r	.	4r	.	.	.	.	4c#/	.
8A\	.	.	.	.	.	.	.	.	.	.	.	.
!	!	!	!	!	!LO:DY:b:t=for	!	!	!	!	!	!	!
8G#\	.	4r	.	4b\	f	4ee#X\	.	.	.	.	4r	.
8G#\J	.	.	.	.	.	.	.	.	.	.	.	.
=106	=106	=106	=106	=106	=106	=106	=106	=106	=106	=106	=106	=106
!	!	!	!	!LO:LB:g=original	!	!	!	!	!	!	!	!
*	*	*	*	*	*	*Xtuplet	*	*	*	*	*	*
!LO:TX:b:t=P:problem:mixed beam	!	!	!	!	!	!	!LO:DY:b:t=for	!	!	!	!LO:TX:a:t=1	!
8F#\L	.	2r	.	8cc#\L	.	24ff#\LL	f	.	.	.	2r	.
.	.	.	.	.	.	24aa\	.	.	.	.	.	.
.	.	.	.	.	.	24gg#\JJ	.	.	.	.	.	.
8A\	x 6	.	.	(24cc#\L	.	24aa\LL	.	.	.	.	.	.
.	.	.	.	24b\	.	24gg#\	.	.	.	.	.	.
.	.	.	.	24a\JJ)	.	24ff#\JJ	.	.	.	.	.	.
8B\	x 4	.	.	8g#/L	.	8ee\L	.	.	.	.	.	.
8BB/J	x 3	.	.	8f#/J	.	8dd#\J	.	.	.	.	.	.
=107	=107	=107	=107	=107	=107	=107	=107	=107	=107	=107	=107	=107
!	!	!	!	!	!	!	!	!	!	!	!LO:TX:b:i:t=poco	!
4E\	.	24ee\LL	.	4g#/	.	4ee\	.	.	.	.	24ee\LL	.
.	.	24gg#\	.	.	.	.	.	.	.	.	24gg#\	.
.	.	24ff#\JJ	.	.	.	.	.	.	.	.	24ff#\JJ	.
.	.	24ee\LL	.	.	.	.	.	.	.	.	24ee\LL	.
.	.	24dd#\	.	.	.	.	.	.	.	.	24dd#\	.
.	.	24cc#\JJ	.	.	.	.	.	.	.	.	24cc#\JJ	.
4r	.	24b\LL	.	4r	.	4r	.	.	.	.	24b\LL	.
.	.	24a\	.	.	.	.	.	.	.	.	24a\	.
.	.	24g#\JJ	.	.	.	.	.	.	.	.	24g#\JJ	.
.	.	24f#/LL	.	.	.	.	.	.	.	.	24f#\LL	.
.	.	24e/	.	.	.	.	.	.	.	.	24e\	.
.	.	24d#/JJ	.	.	.	.	.	.	.	.	24d#\JJ	.
=108	=108	=108	=108	=108	=108	=108	=108	=108	=108	=108	=108	=108
*tremolo	*	*	*	*	*	*	*	*	*	*	*	*
!	!	!	!	!	!	!	!	!LO:N:vis=00	!	!	!	!
8A\L	.	4c#/	.	4r	.	4r	.	0r	.	.	4c#/	.
8A\	.	.	.	.	.	.	.	.	.	.	.	.
!	!	!	!	!	!	!	!LO:DY:b:t=for	!	!	!	!	!
8A\	.	4r	.	4ee\	.	4ccc#\	f	.	.	.	4r	.
8A\J	.	.	.	.	.	.	.	.	.	.	.	.
=109	=109	=109	=109	=109	=109	=109	=109	=109	=109	=109	=109	=109
!	!	!	!	!	!	!LO:LB:g=original	!	!	!	!	!	!
!LO:TX:b:t=P:problem:mixed beam	!	!	!	!	!LO:DY:b:t=for	!	!	!	!	!	!LO:TX:a:t=1	!
8G#\L	.	2ryy	.	8ee\	f	24bb\LL	.	.	.	.	2r	.
.	.	.	.	.	.	24aa\	.	.	.	.	.	.
.	.	.	.	.	.	24bb\JJ	.	.	.	.	.	.
8A\	.	.	.	4ee\	.	24ccc#\LL	.	.	.	.	.	.
.	.	.	.	.	.	24bb\	.	.	.	.	.	.
.	.	.	.	.	.	24aa\JJ	.	.	.	.	.	.
8B\	.	.	.	.	.	8gg#\L	.	.	.	.	.	.
8BB/J	.	.	.	8dd#\	.	8ff#\J	.	.	.	.	.	.
=110	=110	=110	=110	=110	=110	=110	=110	=110	=110	=110	=110	=110
!	!	!	!	!LO:TX:b:t=P:problem:mixed beam	!LO:DY:b	!	!LO:DY:b:rj:t=p&colon;	!	!	!	!	!
8E\L	.	8r	.	8ee\L	pp	8ee\L	pp	.	.	.	8r	.
!	!	!	!LO:DY:b:t=fofo&colon;	!	!	!	!	!	!	!	!LO:TX:b:i:t=Dolce	!
8E\	.	16aa#X\LL	ff	8g#/	.	8b\	.	.	.	.	(16aa#\LL	.
.	.	16bb\JJ	.	.	.	.	.	.	.	.	16bb\JJ)	.
8E\	.	16ff##X\LL	.	8g#/	.	8b\	.	.	.	.	(16ff##X\LL	.
.	.	16gg#\	.	.	.	.	.	.	.	.	16gg#\)	.
8E\J	.	16dd#\	.	8g#/J	.	8b\J	.	.	.	.	(16dd#\	.
.	.	16ee\JJ	.	.	.	.	.	.	.	.	16ee\JJ)	.
=111	=111	=111	=111	=111	=111	=111	=111	=111	=111	=111	=111	=111
*	*	*	*	*tremolo	*	*tremolo	*	*	*	*	*	*
!	!	!	!	!	!	!LO:TX:a:t=P:problem:repetycja na początku i na końcu taktu	!	!	!	!	!	!
8E\L	.	16a#X\LL	.	8g#/L	.	8b\L	.	.	.	.	(16a#\LL	.
.	.	16b\	.	.	.	.	.	.	.	.	16b\)	.
8E\	.	16aa#y\	.	8g#/	.	8b\	.	.	.	.	(16aa#\	.
.	.	16bb\JJ	.	.	.	.	.	.	.	.	16bb\JJ)	.
8E\	.	16ff##X\LL	.	8g#/	.	8b\	.	.	.	.	(16ff##X\LL	.
.	.	16gg#\	.	.	.	.	.	.	.	.	16gg#\)	.
8E\J	.	16dd#\	.	8g#/J	.	8b\J	.	.	.	.	16dd#\	.
.	.	16ee\JJ	.	.	.	.	.	.	.	.	16ee\JJ	.
=112	=112	=112	=112	=112	=112	=112	=112	=112	=112	=112	=112	=112
!	!	!	!	!	!	!LO:TX:a:t=P:problem:takt zapisany repetycją	!	!LO:N:vis=0	!	!	!LO:SIC:s=16bn:v	!
8E\L	.	16a#X\LL	.	8g#/L	.	8b\Lyy	.	1r	.	.	16a\LL	.
.	.	16b\	.	.	.	.	.	.	.	.	16b\	.
8E\	.	16cc#\	.	8g#/	.	8b\yy	.	.	.	.	16cc#\	.
.	.	16dd#\JJ	.	.	.	.	.	.	.	.	16dd#\JJ	.
8E\	.	16ff##X\LL	.	8g#/	.	8b\yy	.	.	.	.	16ff##X\LL	.
.	.	16gg#\	.	.	.	.	.	.	.	.	16gg#\	.
8E\J	.	16aa#X\	.	8g#/J	.	8b\Jyy	.	.	.	.	16aa#\	.
.	.	16bb\JJ	.	.	.	.	.	.	.	.	16bb\JJ	.
=113	=113	=113	=113	=113	=113	=113	=113	=113	=113	=113	=113	=113
!LO:LB:g=original	!	!LO:LB:g=original	!	!	!	!	!	!	!	!	!	!
4E\	.	4ee\	.	4g#/	.	4b\	.	.	.	.	4ee\	.
4r	.	4r	.	4r	.	4r	.	.	.	.	4r	.
==	==	==	==	==	==	==	==	==	==	==	==	==
*-	*-	*-	*-	*-	*-	*-	*-	*-	*-	*-	*-	*-
!!!system-decoration: s1,s2,s3,s4{(s5,s6)}
!!!RDF**kern: > = above
!!!RDF**kern: < = below
!!!AIN: 1 clars 1 empty 1 organ 2 violn
!!!ENC: Andrzej Borzym
!!!END: 2020-03-20
!!!ENC: Marta Lawrence
!!!END: 2020-04-18
